; generated by PrusaSlicer 2.3.0+win64 on 2021-03-12 at 14:57:08 UTC

; 

; external perimeters extrusion width = 0.60mm
; perimeters extrusion width = 0.50mm
; infill extrusion width = 0.50mm
; solid infill extrusion width = 0.50mm
; top infill extrusion width = 0.45mm
; first layer extrusion width = 0.42mm

M73 P0 R155
M73 Q0 S157
M201 X1000 Y1000 Z200 E5000 ; sets maximum accelerations, mm/sec^2
M203 X200 Y200 Z12 E120 ; sets maximum feedrates, mm/sec
M204 P1250 R1250 T1250 ; sets acceleration (P, T) and retract acceleration (R), mm/sec^2
M205 X8.00 Y8.00 Z0.40 E4.50 ; sets the jerk limits, mm/sec
M205 S0 T0 ; sets the minimum extruding and travel feed rate, mm/sec
M107
;TYPE:Custom
M862.3 P "MK3S" ; printer model check
M862.1 P0.4 ; nozzle diameter check
M115 U3.9.2 ; tell printer latest fw version
G90 ; use absolute coordinates
M83 ; extruder relative mode
M104 S215 ; set extruder temp
M140 S60 ; set bed temp
M190 S60 ; wait for bed temp
M109 S215 ; wait for extruder temp
G28 W ; home all without mesh bed level
G80 ; mesh bed leveling
G1 Y-3.0 F1000.0 ; go outside print area
G92 E0.0
G1 X60.0 E9.0 F1000.0 ; intro line
G1 X100.0 E12.5 F1000.0 ; intro line
G92 E0.0
M221 S95

; Don't change E values below. Excessive value can damage the printer.

M907 E538 ; set extruder motor current
G21 ; set units to millimeters
G90 ; use absolute coordinates
M83 ; use relative distances for extrusion
M900 K0.05 ; Filament gcode LA 1.5
M900 K30 ; Filament gcode LA 1.0
;LAYER_CHANGE
;Z:0.2
;HEIGHT:0.2
;BEFORE_LAYER_CHANGE
G92 E0.0
;0.2


G1 E-0.80000 F2100.000
G1 Z0.400 F10800.000
;AFTER_LAYER_CHANGE
;0.2
G1 X34.950 Y58.470
G1 Z0.200
G1 E0.80000 F2100.000
M204 S1000
;TYPE:Skirt
;WIDTH:0.42
G1 F1200.000
G1 X35.504 Y58.249 E0.01870
G1 X36.095 Y58.173 E0.01870
G1 X201.204 Y58.173 E5.17687
G1 X202.106 Y58.352 E0.02884
G1 X202.872 Y58.861 E0.02884
G1 X203.388 Y59.622 E0.02884
G1 X203.577 Y60.522 E0.02884
G1 X203.577 Y149.480 E2.78922
M73 Q0 S156
G1 X203.486 Y150.101 E0.01965
G1 X203.239 Y150.672 E0.01953
G1 X202.851 Y151.160 E0.01953
G1 X202.350 Y151.530 E0.01953
G1 X201.796 Y151.751 E0.01870
G1 X201.205 Y151.827 E0.01870
G1 X36.089 Y151.827 E5.17711
G1 X35.468 Y151.741 E0.01965
G1 X34.888 Y151.495 E0.01977
G1 X34.395 Y151.107 E0.01965
G1 X34.020 Y150.600 E0.01977
G1 X33.799 Y150.046 E0.01870
G1 X33.723 Y149.459 E0.01858
G1 X33.723 Y60.527 E2.78839
M73 P0 R154
G1 X33.812 Y59.907 E0.01965
G1 X34.059 Y59.331 E0.01965
G1 X34.446 Y58.843 E0.01953
G1 X34.901 Y58.506 E0.01777
; printing object led_chip_light_upper.STL id:0 copy 0
;WIPE_START
G1 F8640.000
G1 X35.504 Y58.249 E-0.15116
G1 X36.095 Y58.173 E-0.13772
G1 X38.135 Y58.173 E-0.47112
;WIPE_END
G1 E-0.04000 F2100.000
G1 Z0.600 F10800.000
G1 X42.298 Y69.034
G1 Z0.200
G1 E0.80000 F2100.000
;TYPE:Perimeter
G1 F1200.000
G1 X195.002 Y69.034 E4.78793
G1 X195.002 Y140.966 E2.25538
G1 X42.298 Y140.966 E4.78793
G1 X42.298 Y69.094 E2.25350
G1 X42.675 Y69.411 F10800.000
;TYPE:External perimeter
G1 F1200.000
G1 X194.625 Y69.411 E4.76429
G1 X194.625 Y140.589 E2.23174
G1 X42.675 Y140.589 E4.76429
G1 X42.675 Y69.471 E2.22985
G1 X42.528 Y69.039 F10800.000
;WIPE_START
G1 F8640.000
G1 X45.966 Y69.470 E-0.76000
;WIPE_END
G1 E-0.04000 F2100.000
G1 Z0.600 F10800.000
G1 X36.887 Y61.337
G1 Z0.200
G1 E0.80000 F2100.000
;TYPE:Perimeter
G1 F1200.000
G1 X200.413 Y61.337 E5.12724
M73 Q0 S155
G1 X200.413 Y148.663 E2.73804
G1 X36.887 Y148.663 E5.12724
M73 P1 R153
M73 Q1 S155
G1 X36.887 Y61.397 E2.73616
G1 X36.510 Y60.960 F10800.000
;TYPE:External perimeter
G1 F1200.000
G1 X200.790 Y60.960 E5.15088
G1 X200.790 Y149.040 E2.76169
G1 X36.510 Y149.040 E5.15088
G1 X36.510 Y61.020 E2.75981
G1 X36.905 Y61.025 F10800.000
;WIPE_START
G1 F8640.000
G1 X39.801 Y61.019 E-0.76000
;WIPE_END
G1 E-0.04000 F2100.000
G1 Z0.600 F10800.000
G1 X200.300 Y62.214
G1 Z0.200
G1 E0.80000 F2100.000
;TYPE:Solid infill
;WIDTH:0.420558
G1 F1200.000
G1 X199.706 Y61.620 E0.02637
G1 X199.172 Y61.620 E0.01677
G1 X200.130 Y62.578 E0.04255
G1 X200.130 Y63.112 E0.01677
G1 X198.638 Y61.620 E0.06626
G1 X198.104 Y61.620 E0.01677
G1 X200.130 Y63.646 E0.08998
G1 X200.130 Y64.180 E0.01677
G1 X197.570 Y61.620 E0.11370
G1 X197.036 Y61.620 E0.01677
G1 X200.130 Y64.714 E0.13741
G1 X200.130 Y65.248 E0.01677
G1 X196.502 Y61.620 E0.16113
G1 X195.968 Y61.620 E0.01677
G1 X200.130 Y65.782 E0.18485
G1 X200.130 Y66.316 E0.01677
G1 X195.434 Y61.620 E0.20856
G1 X194.899 Y61.620 E0.01677
G1 X200.130 Y66.851 E0.23228
G1 X200.130 Y67.385 E0.01677
G1 X194.365 Y61.620 E0.25599
G1 X193.831 Y61.620 E0.01677
G1 X200.130 Y67.919 E0.27971
G1 X200.130 Y68.453 E0.01677
G1 X193.297 Y61.620 E0.30343
G1 X192.763 Y61.620 E0.01677
G1 X200.130 Y68.987 E0.32714
G1 X200.130 Y69.521 E0.01677
G1 X192.229 Y61.620 E0.35086
G1 X191.695 Y61.620 E0.01677
G1 X200.130 Y70.055 E0.37458
G1 X200.130 Y70.589 E0.01677
G1 X191.161 Y61.620 E0.39829
G1 X190.627 Y61.620 E0.01677
G1 X200.130 Y71.123 E0.42201
G1 X200.130 Y71.657 E0.01677
G1 X190.093 Y61.620 E0.44572
M73 Q1 S154
G1 X189.559 Y61.620 E0.01677
G1 X200.130 Y72.191 E0.46944
G1 X200.130 Y72.725 E0.01677
G1 X189.025 Y61.620 E0.49316
G1 X188.491 Y61.620 E0.01677
G1 X200.130 Y73.259 E0.51687
G1 X200.130 Y73.793 E0.01677
G1 X187.957 Y61.620 E0.54059
G1 X187.423 Y61.620 E0.01677
G1 X194.554 Y68.751 E0.31668
G1 X194.020 Y68.751 E0.01677
G1 X186.889 Y61.620 E0.31668
G1 X186.355 Y61.620 E0.01677
G1 X193.486 Y68.751 E0.31668
G1 X192.952 Y68.751 E0.01677
G1 X185.820 Y61.620 E0.31668
G1 X185.286 Y61.620 E0.01677
G1 X192.418 Y68.751 E0.31668
G1 X191.884 Y68.751 E0.01677
G1 X184.752 Y61.620 E0.31668
G1 X184.218 Y61.620 E0.01677
G1 X191.350 Y68.751 E0.31668
G1 X190.815 Y68.751 E0.01677
G1 X183.684 Y61.620 E0.31668
G1 X183.150 Y61.620 E0.01677
G1 X190.281 Y68.751 E0.31668
G1 X189.747 Y68.751 E0.01677
G1 X182.616 Y61.620 E0.31668
G1 X182.082 Y61.620 E0.01677
G1 X189.213 Y68.751 E0.31668
G1 X188.679 Y68.751 E0.01677
G1 X181.548 Y61.620 E0.31668
G1 X181.014 Y61.620 E0.01677
G1 X188.145 Y68.751 E0.31668
G1 X187.611 Y68.751 E0.01677
G1 X180.480 Y61.620 E0.31668
G1 X179.946 Y61.620 E0.01677
G1 X187.077 Y68.751 E0.31668
G1 X186.543 Y68.751 E0.01677
G1 X179.412 Y61.620 E0.31668
G1 X178.878 Y61.620 E0.01677
G1 X186.009 Y68.751 E0.31668
G1 X185.475 Y68.751 E0.01677
G1 X178.344 Y61.620 E0.31668
G1 X177.810 Y61.620 E0.01677
G1 X184.941 Y68.751 E0.31668
G1 X184.407 Y68.751 E0.01677
M73 P1 R152
G1 X177.275 Y61.620 E0.31668
G1 X176.741 Y61.620 E0.01677
G1 X183.873 Y68.751 E0.31668
G1 X183.339 Y68.751 E0.01677
G1 X176.207 Y61.620 E0.31668
G1 X175.673 Y61.620 E0.01677
G1 X182.805 Y68.751 E0.31668
G1 X182.270 Y68.751 E0.01677
G1 X175.139 Y61.620 E0.31668
G1 X174.605 Y61.620 E0.01677
G1 X181.736 Y68.751 E0.31668
G1 X181.202 Y68.751 E0.01677
G1 X174.071 Y61.620 E0.31668
G1 X173.537 Y61.620 E0.01677
G1 X180.668 Y68.751 E0.31668
G1 X180.134 Y68.751 E0.01677
G1 X173.003 Y61.620 E0.31668
G1 X172.469 Y61.620 E0.01677
G1 X179.600 Y68.751 E0.31668
G1 X179.066 Y68.751 E0.01677
G1 X171.935 Y61.620 E0.31668
G1 X171.401 Y61.620 E0.01677
G1 X178.532 Y68.751 E0.31668
G1 X177.998 Y68.751 E0.01677
G1 X170.867 Y61.620 E0.31668
G1 X170.333 Y61.620 E0.01677
G1 X177.464 Y68.751 E0.31668
G1 X176.930 Y68.751 E0.01677
G1 X169.799 Y61.620 E0.31668
G1 X169.265 Y61.620 E0.01677
G1 X176.396 Y68.751 E0.31668
G1 X175.862 Y68.751 E0.01677
G1 X168.731 Y61.620 E0.31668
G1 X168.196 Y61.620 E0.01677
G1 X175.328 Y68.751 E0.31668
G1 X174.794 Y68.751 E0.01677
G1 X167.662 Y61.620 E0.31668
G1 X167.128 Y61.620 E0.01677
G1 X174.260 Y68.751 E0.31668
G1 X173.726 Y68.751 E0.01677
G1 X166.594 Y61.620 E0.31668
G1 X166.060 Y61.620 E0.01677
G1 X173.191 Y68.751 E0.31668
G1 X172.657 Y68.751 E0.01677
G1 X165.526 Y61.620 E0.31668
G1 X164.992 Y61.620 E0.01677
G1 X172.123 Y68.751 E0.31668
G1 X171.589 Y68.751 E0.01677
G1 X164.458 Y61.620 E0.31668
G1 X163.924 Y61.620 E0.01677
G1 X171.055 Y68.751 E0.31668
G1 X170.521 Y68.751 E0.01677
G1 X163.390 Y61.620 E0.31668
G1 X162.856 Y61.620 E0.01677
G1 X169.987 Y68.751 E0.31668
G1 X169.453 Y68.751 E0.01677
G1 X162.322 Y61.620 E0.31668
G1 X161.788 Y61.620 E0.01677
G1 X168.919 Y68.751 E0.31668
G1 X168.385 Y68.751 E0.01677
G1 X161.254 Y61.620 E0.31668
G1 X160.720 Y61.620 E0.01677
G1 X167.851 Y68.751 E0.31668
G1 X167.317 Y68.751 E0.01677
G1 X160.186 Y61.620 E0.31668
G1 X159.651 Y61.620 E0.01677
G1 X166.783 Y68.751 E0.31668
G1 X166.249 Y68.751 E0.01677
G1 X159.117 Y61.620 E0.31668
G1 X158.583 Y61.620 E0.01677
G1 X165.715 Y68.751 E0.31668
G1 X165.181 Y68.751 E0.01677
G1 X158.049 Y61.620 E0.31668
G1 X157.515 Y61.620 E0.01677
G1 X164.646 Y68.751 E0.31668
G1 X164.112 Y68.751 E0.01677
G1 X156.981 Y61.620 E0.31668
G1 X156.447 Y61.620 E0.01677
G1 X163.578 Y68.751 E0.31668
G1 X163.044 Y68.751 E0.01677
G1 X155.913 Y61.620 E0.31668
G1 X155.379 Y61.620 E0.01677
G1 X162.510 Y68.751 E0.31668
G1 X161.976 Y68.751 E0.01677
G1 X154.845 Y61.620 E0.31668
G1 X154.311 Y61.620 E0.01677
G1 X161.442 Y68.751 E0.31668
G1 X160.908 Y68.751 E0.01677
G1 X153.777 Y61.620 E0.31668
G1 X153.243 Y61.620 E0.01677
G1 X160.374 Y68.751 E0.31668
G1 X159.840 Y68.751 E0.01677
G1 X152.709 Y61.620 E0.31668
G1 X152.175 Y61.620 E0.01677
G1 X159.306 Y68.751 E0.31668
G1 X158.772 Y68.751 E0.01677
G1 X151.641 Y61.620 E0.31668
G1 X151.106 Y61.620 E0.01677
G1 X158.238 Y68.751 E0.31668
G1 X157.704 Y68.751 E0.01677
G1 X150.572 Y61.620 E0.31668
G1 X150.038 Y61.620 E0.01677
G1 X157.170 Y68.751 E0.31668
G1 X156.636 Y68.751 E0.01677
G1 X149.504 Y61.620 E0.31668
G1 X148.970 Y61.620 E0.01677
G1 X156.102 Y68.751 E0.31668
G1 X155.567 Y68.751 E0.01677
G1 X148.436 Y61.620 E0.31668
G1 X147.902 Y61.620 E0.01677
G1 X155.033 Y68.751 E0.31668
G1 X154.499 Y68.751 E0.01677
G1 X147.368 Y61.620 E0.31668
G1 X146.834 Y61.620 E0.01677
G1 X153.965 Y68.751 E0.31668
G1 X153.431 Y68.751 E0.01677
G1 X146.300 Y61.620 E0.31668
G1 X145.766 Y61.620 E0.01677
G1 X152.897 Y68.751 E0.31668
G1 X152.363 Y68.751 E0.01677
G1 X145.232 Y61.620 E0.31668
G1 X144.698 Y61.620 E0.01677
G1 X151.829 Y68.751 E0.31668
G1 X151.295 Y68.751 E0.01677
G1 X144.164 Y61.620 E0.31668
M73 P2 R152
G1 X143.630 Y61.620 E0.01677
G1 X150.761 Y68.751 E0.31668
G1 X150.227 Y68.751 E0.01677
G1 X143.096 Y61.620 E0.31668
M73 Q2 S154
G1 X142.562 Y61.620 E0.01677
G1 X149.693 Y68.751 E0.31668
G1 X149.159 Y68.751 E0.01677
G1 X142.027 Y61.620 E0.31668
G1 X141.493 Y61.620 E0.01677
G1 X148.625 Y68.751 E0.31668
G1 X148.091 Y68.751 E0.01677
G1 X140.959 Y61.620 E0.31668
G1 X140.425 Y61.620 E0.01677
G1 X147.557 Y68.751 E0.31668
G1 X147.022 Y68.751 E0.01677
G1 X139.891 Y61.620 E0.31668
G1 X139.357 Y61.620 E0.01677
G1 X146.488 Y68.751 E0.31668
G1 X145.954 Y68.751 E0.01677
G1 X138.823 Y61.620 E0.31668
G1 X138.289 Y61.620 E0.01677
G1 X145.420 Y68.751 E0.31668
G1 X144.886 Y68.751 E0.01677
G1 X137.755 Y61.620 E0.31668
G1 X137.221 Y61.620 E0.01677
G1 X144.352 Y68.751 E0.31668
G1 X143.818 Y68.751 E0.01677
G1 X136.687 Y61.620 E0.31668
G1 X136.153 Y61.620 E0.01677
G1 X143.284 Y68.751 E0.31668
G1 X142.750 Y68.751 E0.01677
G1 X135.619 Y61.620 E0.31668
G1 X135.085 Y61.620 E0.01677
G1 X142.216 Y68.751 E0.31668
G1 X141.682 Y68.751 E0.01677
G1 X134.551 Y61.620 E0.31668
G1 X134.017 Y61.620 E0.01677
G1 X141.148 Y68.751 E0.31668
G1 X140.614 Y68.751 E0.01677
G1 X133.482 Y61.620 E0.31668
G1 X132.948 Y61.620 E0.01677
G1 X140.080 Y68.751 E0.31668
G1 X139.546 Y68.751 E0.01677
G1 X132.414 Y61.620 E0.31668
G1 X131.880 Y61.620 E0.01677
G1 X139.012 Y68.751 E0.31668
M73 Q2 S153
G1 X138.477 Y68.751 E0.01677
G1 X131.346 Y61.620 E0.31668
G1 X130.812 Y61.620 E0.01677
G1 X137.943 Y68.751 E0.31668
G1 X137.409 Y68.751 E0.01677
G1 X130.278 Y61.620 E0.31668
G1 X129.744 Y61.620 E0.01677
G1 X136.875 Y68.751 E0.31668
G1 X136.341 Y68.751 E0.01677
G1 X129.210 Y61.620 E0.31668
G1 X128.676 Y61.620 E0.01677
G1 X135.807 Y68.751 E0.31668
G1 X135.273 Y68.751 E0.01677
G1 X128.142 Y61.620 E0.31668
G1 X127.608 Y61.620 E0.01677
G1 X134.739 Y68.751 E0.31668
G1 X134.205 Y68.751 E0.01677
G1 X127.074 Y61.620 E0.31668
G1 X126.540 Y61.620 E0.01677
G1 X133.671 Y68.751 E0.31668
G1 X133.137 Y68.751 E0.01677
G1 X126.006 Y61.620 E0.31668
G1 X125.472 Y61.620 E0.01677
G1 X132.603 Y68.751 E0.31668
G1 X132.069 Y68.751 E0.01677
G1 X124.938 Y61.620 E0.31668
G1 X124.403 Y61.620 E0.01677
G1 X131.535 Y68.751 E0.31668
G1 X131.001 Y68.751 E0.01677
G1 X123.869 Y61.620 E0.31668
G1 X123.335 Y61.620 E0.01677
G1 X130.467 Y68.751 E0.31668
G1 X129.933 Y68.751 E0.01677
G1 X122.801 Y61.620 E0.31668
G1 X122.267 Y61.620 E0.01677
G1 X129.398 Y68.751 E0.31668
G1 X128.864 Y68.751 E0.01677
G1 X121.733 Y61.620 E0.31668
G1 X121.199 Y61.620 E0.01677
G1 X128.330 Y68.751 E0.31668
G1 X127.796 Y68.751 E0.01677
G1 X120.665 Y61.620 E0.31668
G1 X120.131 Y61.620 E0.01677
G1 X127.262 Y68.751 E0.31668
G1 X126.728 Y68.751 E0.01677
G1 X119.597 Y61.620 E0.31668
G1 X119.063 Y61.620 E0.01677
G1 X126.194 Y68.751 E0.31668
G1 X125.660 Y68.751 E0.01677
G1 X118.529 Y61.620 E0.31668
M73 P2 R151
G1 X117.995 Y61.620 E0.01677
G1 X125.126 Y68.751 E0.31668
G1 X124.592 Y68.751 E0.01677
G1 X117.461 Y61.620 E0.31668
G1 X116.927 Y61.620 E0.01677
G1 X124.058 Y68.751 E0.31668
G1 X123.524 Y68.751 E0.01677
G1 X116.393 Y61.620 E0.31668
G1 X115.858 Y61.620 E0.01677
G1 X122.990 Y68.751 E0.31668
G1 X122.456 Y68.751 E0.01677
G1 X115.324 Y61.620 E0.31668
G1 X114.790 Y61.620 E0.01677
G1 X121.922 Y68.751 E0.31668
G1 X121.388 Y68.751 E0.01677
G1 X114.256 Y61.620 E0.31668
G1 X113.722 Y61.620 E0.01677
G1 X120.853 Y68.751 E0.31668
G1 X120.319 Y68.751 E0.01677
G1 X113.188 Y61.620 E0.31668
G1 X112.654 Y61.620 E0.01677
G1 X119.785 Y68.751 E0.31668
G1 X119.251 Y68.751 E0.01677
G1 X112.120 Y61.620 E0.31668
G1 X111.586 Y61.620 E0.01677
G1 X118.717 Y68.751 E0.31668
G1 X118.183 Y68.751 E0.01677
G1 X111.052 Y61.620 E0.31668
G1 X110.518 Y61.620 E0.01677
G1 X117.649 Y68.751 E0.31668
G1 X117.115 Y68.751 E0.01677
G1 X109.984 Y61.620 E0.31668
G1 X109.450 Y61.620 E0.01677
G1 X116.581 Y68.751 E0.31668
G1 X116.047 Y68.751 E0.01677
G1 X108.916 Y61.620 E0.31668
G1 X108.382 Y61.620 E0.01677
G1 X115.513 Y68.751 E0.31668
G1 X114.979 Y68.751 E0.01677
G1 X107.848 Y61.620 E0.31668
G1 X107.314 Y61.620 E0.01677
G1 X114.445 Y68.751 E0.31668
G1 X113.911 Y68.751 E0.01677
G1 X106.779 Y61.620 E0.31668
G1 X106.245 Y61.620 E0.01677
G1 X113.377 Y68.751 E0.31668
G1 X112.843 Y68.751 E0.01677
G1 X105.711 Y61.620 E0.31668
G1 X105.177 Y61.620 E0.01677
G1 X112.309 Y68.751 E0.31668
G1 X111.774 Y68.751 E0.01677
G1 X104.643 Y61.620 E0.31668
G1 X104.109 Y61.620 E0.01677
G1 X111.240 Y68.751 E0.31668
G1 X110.706 Y68.751 E0.01677
G1 X103.575 Y61.620 E0.31668
G1 X103.041 Y61.620 E0.01677
G1 X110.172 Y68.751 E0.31668
G1 X109.638 Y68.751 E0.01677
G1 X102.507 Y61.620 E0.31668
G1 X101.973 Y61.620 E0.01677
G1 X109.104 Y68.751 E0.31668
G1 X108.570 Y68.751 E0.01677
G1 X101.439 Y61.620 E0.31668
G1 X100.905 Y61.620 E0.01677
G1 X108.036 Y68.751 E0.31668
G1 X107.502 Y68.751 E0.01677
G1 X100.371 Y61.620 E0.31668
G1 X99.837 Y61.620 E0.01677
G1 X106.968 Y68.751 E0.31668
G1 X106.434 Y68.751 E0.01677
G1 X99.303 Y61.620 E0.31668
G1 X98.769 Y61.620 E0.01677
G1 X105.900 Y68.751 E0.31668
G1 X105.366 Y68.751 E0.01677
G1 X98.234 Y61.620 E0.31668
G1 X97.700 Y61.620 E0.01677
G1 X104.832 Y68.751 E0.31668
G1 X104.298 Y68.751 E0.01677
G1 X97.166 Y61.620 E0.31668
G1 X96.632 Y61.620 E0.01677
G1 X103.764 Y68.751 E0.31668
G1 X103.229 Y68.751 E0.01677
G1 X96.098 Y61.620 E0.31668
G1 X95.564 Y61.620 E0.01677
G1 X102.695 Y68.751 E0.31668
G1 X102.161 Y68.751 E0.01677
G1 X95.030 Y61.620 E0.31668
G1 X94.496 Y61.620 E0.01677
G1 X101.627 Y68.751 E0.31668
G1 X101.093 Y68.751 E0.01677
G1 X93.962 Y61.620 E0.31668
G1 X93.428 Y61.620 E0.01677
G1 X100.559 Y68.751 E0.31668
G1 X100.025 Y68.751 E0.01677
G1 X92.894 Y61.620 E0.31668
G1 X92.360 Y61.620 E0.01677
G1 X99.491 Y68.751 E0.31668
G1 X98.957 Y68.751 E0.01677
G1 X91.826 Y61.620 E0.31668
G1 X91.292 Y61.620 E0.01677
G1 X98.423 Y68.751 E0.31668
G1 X97.889 Y68.751 E0.01677
G1 X90.758 Y61.620 E0.31668
G1 X90.224 Y61.620 E0.01677
G1 X97.355 Y68.751 E0.31668
G1 X96.821 Y68.751 E0.01677
G1 X89.690 Y61.620 E0.31668
G1 X89.155 Y61.620 E0.01677
G1 X96.287 Y68.751 E0.31668
G1 X95.753 Y68.751 E0.01677
