; generated by PrusaSlicer 2.3.0+win64 on 2021-03-12 at 14:54:31 UTC

; 

; external perimeters extrusion width = 0.60mm
; perimeters extrusion width = 0.50mm
; infill extrusion width = 0.50mm
; solid infill extrusion width = 0.50mm
; top infill extrusion width = 0.45mm
; first layer extrusion width = 0.42mm

M73 P0 R136
M73 Q0 S137
M201 X1000 Y1000 Z200 E5000 ; sets maximum accelerations, mm/sec^2
M203 X200 Y200 Z12 E120 ; sets maximum feedrates, mm/sec
M204 P1250 R1250 T1250 ; sets acceleration (P, T) and retract acceleration (R), mm/sec^2
M205 X8.00 Y8.00 Z0.40 E4.50 ; sets the jerk limits, mm/sec
M205 S0 T0 ; sets the minimum extruding and travel feed rate, mm/sec
M107
;TYPE:Custom
M862.3 P "MK3S" ; printer model check
M862.1 P0.4 ; nozzle diameter check
M115 U3.9.2 ; tell printer latest fw version
G90 ; use absolute coordinates
M83 ; extruder relative mode
M104 S215 ; set extruder temp
M140 S60 ; set bed temp
M190 S60 ; wait for bed temp
M109 S215 ; wait for extruder temp
G28 W ; home all without mesh bed level
G80 ; mesh bed leveling
G1 Y-3.0 F1000.0 ; go outside print area
G92 E0.0
G1 X60.0 E9.0 F1000.0 ; intro line
G1 X100.0 E12.5 F1000.0 ; intro line
G92 E0.0
M221 S95

; Don't change E values below. Excessive value can damage the printer.

M907 E538 ; set extruder motor current
G21 ; set units to millimeters
G90 ; use absolute coordinates
M83 ; use relative distances for extrusion
M900 K0.05 ; Filament gcode LA 1.5
M900 K30 ; Filament gcode LA 1.0
;LAYER_CHANGE
;Z:0.2
;HEIGHT:0.2
;BEFORE_LAYER_CHANGE
G92 E0.0
;0.2


G1 E-0.80000 F2100.000
G1 Z0.400 F10800.000
;AFTER_LAYER_CHANGE
;0.2
G1 X34.950 Y58.470
G1 Z0.200
G1 E0.80000 F2100.000
M204 S1000
;TYPE:Skirt
;WIDTH:0.42
G1 F1200.000
G1 X35.504 Y58.249 E0.01870
G1 X36.095 Y58.173 E0.01870
G1 X201.204 Y58.173 E5.17687
G1 X201.766 Y58.241 E0.01775
G1 X214.674 Y61.477 E0.41724
G1 X215.250 Y61.768 E0.02024
G1 X215.724 Y62.201 E0.02012
G1 X216.067 Y62.748 E0.02024
G1 X216.249 Y63.363 E0.02012
G1 X216.277 Y146.309 E2.60072
G1 X216.186 Y146.926 E0.01953
G1 X215.939 Y147.497 E0.01953
G1 X215.551 Y147.985 E0.01953
G1 X215.050 Y148.355 E0.01953
G1 X214.477 Y148.581 E0.01934
G1 X201.765 Y151.759 E0.41081
G1 X201.230 Y151.827 E0.01692
G1 X36.081 Y151.827 E5.17813
G1 X35.460 Y151.739 E0.01965
G1 X34.884 Y151.493 E0.01965
G1 X34.393 Y151.104 E0.01965
G1 X34.020 Y150.600 E0.01965
G1 X33.799 Y150.046 E0.01870
G1 X33.723 Y149.459 E0.01858
G1 X33.723 Y60.527 E2.78839
G1 X33.812 Y59.907 E0.01965
G1 X34.059 Y59.331 E0.01965
G1 X34.446 Y58.843 E0.01953
G1 X34.901 Y58.506 E0.01777
; printing object led_chip_light_lower.STL id:0 copy 0
;WIPE_START
G1 F8640.000
G1 X35.504 Y58.249 E-0.15116
G1 X36.095 Y58.173 E-0.13772
G1 X38.135 Y58.173 E-0.47112
;WIPE_END
G1 E-0.04000 F2100.000
G1 Z0.600 F10800.000
G1 X64.672 Y70.072
G1 Z0.200
G1 E0.80000 F2100.000
;TYPE:Perimeter
G1 F1200.000
G1 X172.628 Y70.072 E3.38489
G1 X172.628 Y139.928 E2.19030
G1 X64.672 Y139.928 E3.38489
M73 P0 R135
G1 X64.672 Y70.132 E2.18841
G1 X65.049 Y70.449 F10800.000
;TYPE:External perimeter
G1 F1200.000
G1 X172.251 Y70.449 E3.36125
M73 Q0 S136
G1 X172.251 Y139.551 E2.16665
G1 X65.049 Y139.551 E3.36125
G1 X65.049 Y70.509 E2.16477
G1 X64.918 Y70.071 F10800.000
;WIPE_START
G1 F8640.000
G1 X68.340 Y70.507 E-0.76000
;WIPE_END
G1 E-0.04000 F2100.000
G1 Z0.600 F10800.000
G1 X200.413 Y64.512
G1 Z0.200
G1 E0.80000 F2100.000
;TYPE:Perimeter
G1 F1200.000
G1 X213.113 Y64.512 E0.39820
G1 X213.113 Y94.053 E0.92623
G1 X197.111 Y94.053 E0.50173
G1 X197.111 Y114.677 E0.64666
G1 X213.113 Y114.677 E0.50173
G1 X213.113 Y145.488 E0.96605
G1 X200.413 Y145.488 E0.39820
G1 X200.413 Y148.663 E0.09955
G1 X36.887 Y148.663 E5.12724
M73 P1 R135
M73 Q1 S136
G1 X36.887 Y61.337 E2.73804
G1 X200.413 Y61.337 E5.12724
G1 X200.413 Y64.452 E0.09767
G1 X200.790 Y64.135 F10800.000
;TYPE:External perimeter
G1 F1200.000
G1 X213.490 Y64.135 E0.39820
G1 X213.490 Y94.430 E0.94988
G1 X197.488 Y94.430 E0.50173
G1 X197.488 Y114.300 E0.62301
G1 X213.490 Y114.300 E0.50173
G1 X213.490 Y145.865 E0.98970
M73 P1 R134
G1 X200.790 Y145.865 E0.39820
G1 X200.790 Y149.040 E0.09955
G1 X36.510 Y149.040 E5.15088
M73 Q1 S135
G1 X36.510 Y60.960 E2.76169
G1 X200.790 Y60.960 E5.15088
G1 X200.790 Y64.075 E0.09767
G1 X200.988 Y64.483 F10800.000
;WIPE_START
G1 F8640.000
G1 X204.081 Y64.091 E-0.76000
;WIPE_END
G1 E-0.04000 F2100.000
G1 Z0.600 F10800.000
G1 X212.237 Y64.625
G1 Z0.200
G1 E0.80000 F2100.000
;TYPE:Solid infill
;WIDTH:0.42043
G1 F1200.000
G1 X212.830 Y65.219 E0.02635
G1 X212.830 Y65.753 E0.01676
G1 X211.872 Y64.795 E0.04251
G1 X211.339 Y64.795 E0.01676
G1 X212.830 Y66.286 E0.06621
G1 X212.830 Y66.820 E0.01676
G1 X210.805 Y64.795 E0.08991
G1 X210.271 Y64.795 E0.01676
G1 X212.830 Y67.354 E0.11361
G1 X212.830 Y67.888 E0.01676
G1 X209.737 Y64.795 E0.13731
G1 X209.203 Y64.795 E0.01676
G1 X212.830 Y68.422 E0.16101
G1 X212.830 Y68.956 E0.01676
G1 X208.669 Y64.795 E0.18472
G1 X208.135 Y64.795 E0.01676
G1 X212.830 Y69.490 E0.20842
G1 X212.830 Y70.024 E0.01676
G1 X207.601 Y64.795 E0.23212
G1 X207.068 Y64.795 E0.01676
G1 X212.830 Y70.557 E0.25582
G1 X212.830 Y71.091 E0.01676
G1 X206.534 Y64.795 E0.27952
G1 X206.000 Y64.795 E0.01676
G1 X212.830 Y71.625 E0.30322
G1 X212.830 Y72.159 E0.01676
G1 X205.466 Y64.795 E0.32692
G1 X204.932 Y64.795 E0.01676
G1 X212.830 Y72.693 E0.35062
G1 X212.830 Y73.227 E0.01676
G1 X204.398 Y64.795 E0.37432
G1 X203.864 Y64.795 E0.01676
G1 X212.830 Y73.761 E0.39802
G1 X212.830 Y74.295 E0.01676
G1 X203.330 Y64.795 E0.42172
G1 X202.796 Y64.795 E0.01676
G1 X212.830 Y74.829 E0.44542
G1 X212.830 Y75.362 E0.01676
G1 X202.263 Y64.795 E0.46912
G1 X201.729 Y64.795 E0.01676
G1 X212.830 Y75.896 E0.49282
G1 X212.830 Y76.430 E0.01676
G1 X201.025 Y64.625 E0.52405
;WIPE_START
G1 F8640.000
G1 X203.353 Y66.953 E-0.76000
;WIPE_END
G1 E-0.04000 F2100.000
G1 Z0.600 F10800.000
G1 X199.452 Y61.450
G1 Z0.200
G1 E0.80000 F2100.000
G1 F1200.000
G1 X200.130 Y62.129 E0.03011
G1 X200.130 Y62.662 E0.01676
G1 X199.088 Y61.620 E0.04628
G1 X198.554 Y61.620 E0.01676
G1 X200.130 Y63.196 E0.06998
G1 X200.130 Y63.730 E0.01676
G1 X198.020 Y61.620 E0.09368
G1 X197.486 Y61.620 E0.01676
G1 X200.130 Y64.264 E0.11738
G1 X200.130 Y64.795 E0.01666
G1 X200.661 Y64.795 E0.01666
G1 X212.830 Y76.964 E0.54022
G1 X212.830 Y77.498 E0.01676
G1 X196.952 Y61.620 E0.70486
G1 X196.418 Y61.620 E0.01676
G1 X212.830 Y78.032 E0.72856
G1 X212.830 Y78.566 E0.01676
G1 X195.884 Y61.620 E0.75226
G1 X195.350 Y61.620 E0.01676
G1 X212.830 Y79.100 E0.77596
G1 X212.830 Y79.633 E0.01676
G1 X194.817 Y61.620 E0.79966
G1 X194.283 Y61.620 E0.01676
G1 X212.830 Y80.167 E0.82336
G1 X212.830 Y80.701 E0.01676
G1 X193.749 Y61.620 E0.84706
G1 X193.215 Y61.620 E0.01676
G1 X212.830 Y81.235 E0.87076
G1 X212.830 Y81.769 E0.01676
G1 X192.681 Y61.620 E0.89446
G1 X192.147 Y61.620 E0.01676
G1 X212.830 Y82.303 E0.91816
G1 X212.830 Y82.837 E0.01676
G1 X191.613 Y61.620 E0.94186
G1 X191.079 Y61.620 E0.01676
G1 X212.830 Y83.371 E0.96556
G1 X212.830 Y83.904 E0.01676
G1 X190.546 Y61.620 E0.98926
G1 X190.012 Y61.620 E0.01676
G1 X212.830 Y84.438 E1.01296
G1 X212.830 Y84.972 E0.01676
G1 X189.478 Y61.620 E1.03667
G1 X188.944 Y61.620 E0.01676
G1 X212.830 Y85.506 E1.06037
M73 P2 R134
G1 X212.830 Y86.040 E0.01676
G1 X188.410 Y61.620 E1.08407
M73 P2 R133
M73 Q2 S135
G1 X187.876 Y61.620 E0.01676
G1 X212.830 Y86.574 E1.10777
G1 X212.830 Y87.108 E0.01676
G1 X187.342 Y61.620 E1.13147
G1 X186.808 Y61.620 E0.01676
G1 X212.830 Y87.642 E1.15517
G1 X212.830 Y88.176 E0.01676
G1 X186.274 Y61.620 E1.17887
G1 X185.741 Y61.620 E0.01676
G1 X212.830 Y88.709 E1.20257
M73 Q2 S134
G1 X212.830 Y89.243 E0.01676
G1 X185.207 Y61.620 E1.22627
G1 X184.673 Y61.620 E0.01676
G1 X212.830 Y89.777 E1.24997
G1 X212.830 Y90.311 E0.01676
G1 X184.139 Y61.620 E1.27367
G1 X183.605 Y61.620 E0.01676
G1 X212.830 Y90.845 E1.29737
G1 X212.830 Y91.379 E0.01676
G1 X183.071 Y61.620 E1.32107
G1 X182.537 Y61.620 E0.01676
G1 X212.830 Y91.913 E1.34477
G1 X212.830 Y92.447 E0.01676
G1 X182.003 Y61.620 E1.36847
G1 X181.470 Y61.620 E0.01676
G1 X212.830 Y92.980 E1.39217
G1 X212.830 Y93.514 E0.01676
G1 X180.936 Y61.620 E1.41587
G1 X180.402 Y61.620 E0.01676
G1 X212.552 Y93.770 E1.42722
G1 X212.018 Y93.770 E0.01676
G1 X179.868 Y61.620 E1.42722
G1 X179.334 Y61.620 E0.01676
G1 X211.484 Y93.770 E1.42722
G1 X210.950 Y93.770 E0.01676
G1 X178.800 Y61.620 E1.42722
G1 X178.266 Y61.620 E0.01676
G1 X210.417 Y93.770 E1.42722
G1 X209.883 Y93.770 E0.01676
G1 X177.732 Y61.620 E1.42722
G1 X177.199 Y61.620 E0.01676
G1 X209.349 Y93.770 E1.42722
G1 X208.815 Y93.770 E0.01676
G1 X176.665 Y61.620 E1.42722
G1 X176.131 Y61.620 E0.01676
G1 X208.281 Y93.770 E1.42722
G1 X207.747 Y93.770 E0.01676
G1 X175.597 Y61.620 E1.42722
G1 X175.063 Y61.620 E0.01676
G1 X207.213 Y93.770 E1.42722
G1 X206.679 Y93.770 E0.01676
G1 X174.529 Y61.620 E1.42722
G1 X173.995 Y61.620 E0.01676
G1 X206.145 Y93.770 E1.42722
G1 X205.612 Y93.770 E0.01676
G1 X173.461 Y61.620 E1.42722
M73 P2 R132
G1 X172.927 Y61.620 E0.01676
G1 X205.078 Y93.770 E1.42722
G1 X204.544 Y93.770 E0.01676
G1 X172.394 Y61.620 E1.42722
G1 X171.860 Y61.620 E0.01676
G1 X204.010 Y93.770 E1.42722
G1 X203.476 Y93.770 E0.01676
G1 X171.326 Y61.620 E1.42722
M73 Q2 S133
G1 X170.792 Y61.620 E0.01676
G1 X202.942 Y93.770 E1.42722
G1 X202.408 Y93.770 E0.01676
G1 X170.258 Y61.620 E1.42722
G1 X169.724 Y61.620 E0.01676
G1 X201.874 Y93.770 E1.42722
G1 X201.341 Y93.770 E0.01676
G1 X169.190 Y61.620 E1.42722
G1 X168.656 Y61.620 E0.01676
G1 X200.807 Y93.770 E1.42722
M73 P3 R132
M73 Q3 S133
G1 X200.273 Y93.770 E0.01676
G1 X168.123 Y61.620 E1.42722
G1 X167.589 Y61.620 E0.01676
G1 X199.739 Y93.770 E1.42722
G1 X199.205 Y93.770 E0.01676
G1 X167.055 Y61.620 E1.42722
G1 X166.521 Y61.620 E0.01676
G1 X198.671 Y93.770 E1.42722
G1 X198.137 Y93.770 E0.01676
G1 X165.987 Y61.620 E1.42722
G1 X165.453 Y61.620 E0.01676
G1 X197.603 Y93.770 E1.42722
G1 X197.070 Y93.770 E0.01676
G1 X164.919 Y61.620 E1.42722
G1 X164.385 Y61.620 E0.01676
G1 X172.555 Y69.789 E0.36265
G1 X172.911 Y69.789 E0.01119
G1 X172.911 Y70.145 E0.01119
G1 X196.828 Y94.063 E1.06174
G1 X196.828 Y94.596 E0.01676
G1 X172.911 Y70.679 E1.06174
G1 X172.911 Y71.213 E0.01676
G1 X196.828 Y95.130 E1.06174
G1 X196.828 Y95.664 E0.01676
G1 X172.911 Y71.747 E1.06174
G1 X172.911 Y72.281 E0.01676
G1 X196.828 Y96.198 E1.06174
G1 X196.828 Y96.732 E0.01676
G1 X172.911 Y72.815 E1.06174
G1 X172.911 Y73.349 E0.01676
G1 X196.828 Y97.266 E1.06174
G1 X196.828 Y97.800 E0.01676
G1 X172.911 Y73.883 E1.06174
G1 X172.911 Y74.416 E0.01676
G1 X196.828 Y98.334 E1.06174
G1 X196.828 Y98.868 E0.01676
G1 X172.911 Y74.950 E1.06174
G1 X172.911 Y75.484 E0.01676
G1 X196.828 Y99.401 E1.06174
G1 X196.828 Y99.935 E0.01676
G1 X172.911 Y76.018 E1.06174
M73 P3 R131
G1 X172.911 Y76.552 E0.01676
G1 X196.828 Y100.469 E1.06174
G1 X196.828 Y101.003 E0.01676
G1 X172.911 Y77.086 E1.06174
G1 X172.911 Y77.620 E0.01676
G1 X196.828 Y101.537 E1.06174
G1 X196.828 Y102.071 E0.01676
G1 X172.911 Y78.154 E1.06174
G1 X172.911 Y78.688 E0.01676
G1 X196.828 Y102.605 E1.06174
G1 X196.828 Y103.139 E0.01676
G1 X172.911 Y79.221 E1.06174
M73 Q3 S132
G1 X172.911 Y79.755 E0.01676
G1 X196.828 Y103.672 E1.06174
G1 X196.828 Y104.206 E0.01676
G1 X172.911 Y80.289 E1.06174
G1 X172.911 Y80.823 E0.01676
G1 X196.828 Y104.740 E1.06174
G1 X196.828 Y105.274 E0.01676
G1 X172.911 Y81.357 E1.06174
G1 X172.911 Y81.891 E0.01676
G1 X196.828 Y105.808 E1.06174
G1 X196.828 Y106.342 E0.01676
G1 X172.911 Y82.425 E1.06174
G1 X172.911 Y82.959 E0.01676
G1 X196.828 Y106.876 E1.06174
G1 X196.828 Y107.410 E0.01676
G1 X172.911 Y83.492 E1.06174
G1 X172.911 Y84.026 E0.01676
G1 X196.828 Y107.943 E1.06174
G1 X196.828 Y108.477 E0.01676
G1 X172.911 Y84.560 E1.06174
G1 X172.911 Y85.094 E0.01676
G1 X196.828 Y109.011 E1.06174
G1 X196.828 Y109.545 E0.01676
G1 X172.911 Y85.628 E1.06174
G1 X172.911 Y86.162 E0.01676
G1 X196.828 Y110.079 E1.06174
G1 X196.828 Y110.613 E0.01676
G1 X172.911 Y86.696 E1.06174
G1 X172.911 Y87.230 E0.01676
G1 X196.828 Y111.147 E1.06174
G1 X196.828 Y111.681 E0.01676
G1 X172.911 Y87.763 E1.06174
G1 X172.911 Y88.297 E0.01676
G1 X196.828 Y112.215 E1.06174
G1 X196.828 Y112.748 E0.01676
G1 X172.911 Y88.831 E1.06174
G1 X172.911 Y89.365 E0.01676
G1 X196.828 Y113.282 E1.06174
M73 P4 R131
G1 X196.828 Y113.816 E0.01676
G1 X172.911 Y89.899 E1.06174
M73 Q4 S132
G1 X172.911 Y90.433 E0.01676
G1 X196.998 Y114.520 E1.06927
;WIPE_START
G1 F8640.000
G1 X194.670 Y112.192 E-0.76000
;WIPE_END
G1 E-0.04000 F2100.000
G1 Z0.600 F10800.000
G1 X212.217 Y114.790
G1 Z0.200
G1 E0.80000 F2100.000
G1 F1200.000
G1 X212.830 Y115.403 E0.02722
G1 X212.830 Y115.937 E0.01676
G1 X211.853 Y114.960 E0.04339
G1 X211.319 Y114.960 E0.01676
G1 X212.830 Y116.471 E0.06709
G1 X212.830 Y117.005 E0.01676
G1 X210.785 Y114.960 E0.09079
G1 X210.251 Y114.960 E0.01676
G1 X212.830 Y117.539 E0.11449
G1 X212.830 Y118.073 E0.01676
G1 X209.717 Y114.960 E0.13819
G1 X209.183 Y114.960 E0.01676
G1 X212.830 Y118.607 E0.16189
G1 X212.830 Y119.141 E0.01676
G1 X208.649 Y114.960 E0.18559
G1 X208.116 Y114.960 E0.01676
G1 X212.830 Y119.674 E0.20929
G1 X212.830 Y120.208 E0.01676
G1 X207.582 Y114.960 E0.23299
G1 X207.048 Y114.960 E0.01676
G1 X212.830 Y120.742 E0.25669
G1 X212.830 Y121.276 E0.01676
G1 X206.514 Y114.960 E0.28039
G1 X205.980 Y114.960 E0.01676
G1 X212.830 Y121.810 E0.30409
G1 X212.830 Y122.344 E0.01676
G1 X205.446 Y114.960 E0.32779
G1 X204.912 Y114.960 E0.01676
G1 X212.830 Y122.878 E0.35149
G1 X212.830 Y123.412 E0.01676
G1 X204.378 Y114.960 E0.37519
G1 X203.845 Y114.960 E0.01676
G1 X212.830 Y123.945 E0.39889
G1 X212.830 Y124.479 E0.01676
G1 X203.311 Y114.960 E0.42259
G1 X202.777 Y114.960 E0.01676
G1 X212.830 Y125.013 E0.44629
G1 X212.830 Y125.547 E0.01676
G1 X202.243 Y114.960 E0.46999
G1 X201.709 Y114.960 E0.01676
G1 X212.830 Y126.081 E0.49369
G1 X212.830 Y126.615 E0.01676
G1 X201.175 Y114.960 E0.51739
G1 X200.641 Y114.960 E0.01676
G1 X212.830 Y127.149 E0.54109
G1 X212.830 Y127.683 E0.01676
G1 X200.107 Y114.960 E0.56479
G1 X199.573 Y114.960 E0.01676
G1 X212.830 Y128.217 E0.58849
M73 P4 R130
G1 X212.830 Y128.750 E0.01676
G1 X199.040 Y114.960 E0.61219
G1 X198.506 Y114.960 E0.01676
G1 X212.830 Y129.284 E0.63589
G1 X212.830 Y129.818 E0.01676
G1 X197.972 Y114.960 E0.65959
G1 X197.438 Y114.960 E0.01676
G1 X212.830 Y130.352 E0.68329
G1 X212.830 Y130.886 E0.01676
G1 X172.911 Y90.967 E1.77210
G1 X172.911 Y91.501 E0.01676
G1 X212.830 Y131.420 E1.77210
M73 Q4 S131
G1 X212.830 Y131.954 E0.01676
G1 X172.911 Y92.034 E1.77210
G1 X172.911 Y92.568 E0.01676
G1 X212.830 Y132.488 E1.77210
G1 X212.830 Y133.021 E0.01676
G1 X172.911 Y93.102 E1.77210
G1 X172.911 Y93.636 E0.01676
G1 X212.830 Y133.555 E1.77210
G1 X212.830 Y134.089 E0.01676
G1 X172.911 Y94.170 E1.77210
G1 X172.911 Y94.704 E0.01676
G1 X212.830 Y134.623 E1.77210
G1 X212.830 Y135.157 E0.01676
G1 X172.911 Y95.238 E1.77210
G1 X172.911 Y95.772 E0.01676
G1 X212.830 Y135.691 E1.77210
G1 X212.830 Y136.225 E0.01676
G1 X172.911 Y96.306 E1.77210
G1 X172.911 Y96.839 E0.01676
G1 X212.830 Y136.759 E1.77210
G1 X212.830 Y137.292 E0.01676
G1 X172.911 Y97.373 E1.77210
G1 X172.911 Y97.907 E0.01676
G1 X212.830 Y137.826 E1.77210
G1 X212.830 Y138.360 E0.01676
G1 X172.911 Y98.441 E1.77210
G1 X172.911 Y98.975 E0.01676
G1 X212.830 Y138.894 E1.77210
G1 X212.830 Y139.428 E0.01676
G1 X172.911 Y99.509 E1.77210
G1 X172.911 Y100.043 E0.01676
G1 X212.830 Y139.962 E1.77210
G1 X212.830 Y140.496 E0.01676
G1 X172.911 Y100.577 E1.77210
G1 X172.911 Y101.110 E0.01676
G1 X212.830 Y141.030 E1.77210
M73 P4 R129
G1 X212.830 Y141.563 E0.01676
G1 X172.911 Y101.644 E1.77210
M73 P5 R129
G1 X172.911 Y102.178 E0.01676
G1 X212.830 Y142.097 E1.77210
M73 Q5 S131
G1 X212.830 Y142.631 E0.01676
G1 X172.911 Y102.712 E1.77210
M73 Q5 S130
G1 X172.911 Y103.246 E0.01676
G1 X212.830 Y143.165 E1.77210
G1 X212.830 Y143.699 E0.01676
G1 X172.911 Y103.780 E1.77210
G1 X172.911 Y104.314 E0.01676
G1 X212.830 Y144.233 E1.77210
G1 X212.830 Y144.767 E0.01676
G1 X172.911 Y104.848 E1.77210
G1 X172.911 Y105.381 E0.01676
G1 X212.735 Y145.205 E1.76786
G1 X212.201 Y145.205 E0.01676
G1 X172.911 Y105.915 E1.74416
