; generated by PrusaSlicer 2.3.0+win64 on 2021-03-12 at 14:59:04 UTC

; 

; external perimeters extrusion width = 0.60mm
; perimeters extrusion width = 0.50mm
; infill extrusion width = 0.50mm
; solid infill extrusion width = 0.50mm
; top infill extrusion width = 0.45mm
; first layer extrusion width = 0.42mm

M73 P0 R291
M73 Q0 S294
M201 X1000 Y1000 Z200 E5000 ; sets maximum accelerations, mm/sec^2
M203 X200 Y200 Z12 E120 ; sets maximum feedrates, mm/sec
M204 P1250 R1250 T1250 ; sets acceleration (P, T) and retract acceleration (R), mm/sec^2
M205 X8.00 Y8.00 Z0.40 E4.50 ; sets the jerk limits, mm/sec
M205 S0 T0 ; sets the minimum extruding and travel feed rate, mm/sec
M107
;TYPE:Custom
M862.3 P "MK3S" ; printer model check
M862.1 P0.4 ; nozzle diameter check
M115 U3.9.2 ; tell printer latest fw version
G90 ; use absolute coordinates
M83 ; extruder relative mode
M104 S215 ; set extruder temp
M140 S60 ; set bed temp
M190 S60 ; wait for bed temp
M109 S215 ; wait for extruder temp
G28 W ; home all without mesh bed level
G80 ; mesh bed leveling
G1 Y-3.0 F1000.0 ; go outside print area
G92 E0.0
G1 X60.0 E9.0 F1000.0 ; intro line
G1 X100.0 E12.5 F1000.0 ; intro line
G92 E0.0
M221 S95

; Don't change E values below. Excessive value can damage the printer.

M907 E538 ; set extruder motor current
G21 ; set units to millimeters
G90 ; use absolute coordinates
M83 ; use relative distances for extrusion
M900 K0.05 ; Filament gcode LA 1.5
M900 K30 ; Filament gcode LA 1.0
;LAYER_CHANGE
;Z:0.2
;HEIGHT:0.2
;BEFORE_LAYER_CHANGE
G92 E0.0
;0.2


G1 E-0.80000 F2100.000
G1 Z0.400 F10800.000
;AFTER_LAYER_CHANGE
;0.2
G1 X33.878 Y12.720
G1 Z0.200
G1 E0.80000 F2100.000
M204 S1000
;TYPE:Skirt
;WIDTH:0.42
G1 F1200.000
G1 X34.313 Y11.996 E0.02649
G1 X34.682 Y11.655 E0.01574
G1 X35.114 Y11.400 E0.01574
G1 X35.590 Y11.241 E0.01574
G1 X36.089 Y11.185 E0.01574
G1 X201.205 Y11.185 E5.17710
M73 P0 R290
G1 X201.767 Y11.254 E0.01775
G1 X214.720 Y14.507 E0.41874
G1 X215.345 Y14.851 E0.02237
G1 X215.842 Y15.368 E0.02249
G1 X216.162 Y16.010 E0.02249
G1 X216.276 Y16.718 E0.02249
G1 X216.270 Y99.463 E2.59442
G1 X203.394 Y199.897 E3.17481
M73 Q0 S293
G1 X203.202 Y200.569 E0.02190
G1 X202.823 Y201.155 E0.02190
G1 X202.454 Y201.496 E0.01574
G1 X202.019 Y201.752 E0.01585
G1 X201.542 Y201.910 E0.01574
G1 X201.040 Y201.964 E0.01585
G1 X35.929 Y201.964 E5.17692
G1 X35.095 Y201.810 E0.02661
G1 X34.371 Y201.375 E0.02649
G1 X34.028 Y201.003 E0.01585
G1 X33.772 Y200.568 E0.01585
G1 X33.613 Y200.087 E0.01585
G1 X33.560 Y199.587 E0.01577
G1 X33.560 Y110.683 E2.78752
G1 X33.724 Y13.551 E3.04553
G1 X33.867 Y12.779 E0.02461
; printing object led_chip_light_upper.STL id:1 copy 0
;WIPE_START
G1 F8640.000
G1 X34.313 Y11.996 E-0.20812
G1 X34.682 Y11.655 E-0.11588
G1 X35.114 Y11.400 E-0.11588
G1 X35.590 Y11.241 E-0.11588
G1 X36.089 Y11.185 E-0.11588
G1 X36.471 Y11.185 E-0.08836
;WIPE_END
G1 E-0.04000 F2100.000
G1 Z0.600 F10800.000
G1 X42.135 Y119.171
G1 Z0.200
G1 E0.80000 F2100.000
;TYPE:Perimeter
G1 F1200.000
G1 X194.839 Y119.171 E4.78793
G1 X194.839 Y191.103 E2.25538
G1 X42.135 Y191.103 E4.78793
G1 X42.135 Y119.231 E2.25350
G1 X42.512 Y119.548 F10800.000
;TYPE:External perimeter
G1 F1200.000
G1 X194.462 Y119.548 E4.76429
M73 P0 R289
G1 X194.462 Y190.726 E2.23174
G1 X42.512 Y190.726 E4.76429
M73 Q0 S292
G1 X42.512 Y119.608 E2.22985
G1 X42.365 Y119.176 F10800.000
;WIPE_START
G1 F8640.000
G1 X45.803 Y119.607 E-0.76000
;WIPE_END
G1 E-0.04000 F2100.000
G1 Z0.600 F10800.000
G1 X36.724 Y111.474
G1 Z0.200
G1 E0.80000 F2100.000
;TYPE:Perimeter
G1 F1200.000
G1 X200.250 Y111.474 E5.12724
G1 X200.250 Y198.800 E2.73804
G1 X36.724 Y198.800 E5.12724
G1 X36.724 Y111.534 E2.73616
G1 X36.347 Y111.097 F10800.000
;TYPE:External perimeter
G1 F1200.000
G1 X200.627 Y111.097 E5.15088
G1 X200.627 Y199.177 E2.76169
G1 X36.347 Y199.177 E5.15088
M73 P0 R288
G1 X36.347 Y111.157 E2.75981
G1 X36.742 Y111.163 F10800.000
;WIPE_START
G1 F8640.000
G1 X39.638 Y111.156 E-0.76000
;WIPE_END
G1 E-0.04000 F2100.000
G1 Z0.600 F10800.000
G1 X200.137 Y112.351
G1 Z0.200
M73 Q0 S291
G1 E0.80000 F2100.000
;TYPE:Solid infill
;WIDTH:0.420558
G1 F1200.000
G1 X199.543 Y111.757 E0.02637
G1 X199.009 Y111.757 E0.01677
G1 X199.967 Y112.715 E0.04255
G1 X199.967 Y113.249 E0.01677
G1 X198.475 Y111.757 E0.06626
G1 X197.941 Y111.757 E0.01677
G1 X199.967 Y113.783 E0.08998
G1 X199.967 Y114.318 E0.01677
G1 X197.407 Y111.757 E0.11370
G1 X196.873 Y111.757 E0.01677
G1 X199.967 Y114.852 E0.13741
G1 X199.967 Y115.386 E0.01677
G1 X196.339 Y111.757 E0.16113
G1 X195.805 Y111.757 E0.01677
G1 X199.967 Y115.920 E0.18485
G1 X199.967 Y116.454 E0.01677
G1 X195.271 Y111.757 E0.20856
G1 X194.737 Y111.757 E0.01677
G1 X199.967 Y116.988 E0.23228
G1 X199.967 Y117.522 E0.01677
G1 X194.202 Y111.757 E0.25599
G1 X193.668 Y111.757 E0.01677
G1 X199.967 Y118.056 E0.27971
G1 X199.967 Y118.590 E0.01677
G1 X193.134 Y111.757 E0.30343
G1 X192.600 Y111.757 E0.01677
G1 X199.967 Y119.124 E0.32714
G1 X199.967 Y119.658 E0.01677
G1 X192.066 Y111.757 E0.35086
G1 X191.532 Y111.757 E0.01677
G1 X199.967 Y120.192 E0.37458
G1 X199.967 Y120.726 E0.01677
G1 X190.998 Y111.757 E0.39829
G1 X190.464 Y111.757 E0.01677
G1 X199.967 Y121.260 E0.42201
G1 X199.967 Y121.794 E0.01677
G1 X189.930 Y111.757 E0.44572
G1 X189.396 Y111.757 E0.01677
G1 X199.967 Y122.328 E0.46944
G1 X199.967 Y122.862 E0.01677
G1 X188.862 Y111.757 E0.49316
G1 X188.328 Y111.757 E0.01677
G1 X199.967 Y123.397 E0.51687
G1 X199.967 Y123.931 E0.01677
G1 X187.794 Y111.757 E0.54059
G1 X187.260 Y111.757 E0.01677
G1 X194.391 Y118.888 E0.31668
G1 X193.857 Y118.888 E0.01677
G1 X186.726 Y111.757 E0.31668
G1 X186.192 Y111.757 E0.01677
G1 X193.323 Y118.888 E0.31668
G1 X192.789 Y118.888 E0.01677
G1 X185.658 Y111.757 E0.31668
G1 X185.123 Y111.757 E0.01677
G1 X192.255 Y118.888 E0.31668
G1 X191.721 Y118.888 E0.01677
G1 X184.589 Y111.757 E0.31668
G1 X184.055 Y111.757 E0.01677
G1 X191.187 Y118.888 E0.31668
G1 X190.653 Y118.888 E0.01677
G1 X183.521 Y111.757 E0.31668
G1 X182.987 Y111.757 E0.01677
G1 X190.118 Y118.888 E0.31668
G1 X189.584 Y118.888 E0.01677
G1 X182.453 Y111.757 E0.31668
G1 X181.919 Y111.757 E0.01677
G1 X189.050 Y118.888 E0.31668
G1 X188.516 Y118.888 E0.01677
G1 X181.385 Y111.757 E0.31668
G1 X180.851 Y111.757 E0.01677
G1 X187.982 Y118.888 E0.31668
G1 X187.448 Y118.888 E0.01677
G1 X180.317 Y111.757 E0.31668
G1 X179.783 Y111.757 E0.01677
G1 X186.914 Y118.888 E0.31668
G1 X186.380 Y118.888 E0.01677
G1 X179.249 Y111.757 E0.31668
G1 X178.715 Y111.757 E0.01677
G1 X185.846 Y118.888 E0.31668
G1 X185.312 Y118.888 E0.01677
G1 X178.181 Y111.757 E0.31668
G1 X177.647 Y111.757 E0.01677
G1 X184.778 Y118.888 E0.31668
G1 X184.244 Y118.888 E0.01677
G1 X177.113 Y111.757 E0.31668
G1 X176.578 Y111.757 E0.01677
G1 X183.710 Y118.888 E0.31668
G1 X183.176 Y118.888 E0.01677
G1 X176.044 Y111.757 E0.31668
G1 X175.510 Y111.757 E0.01677
G1 X182.642 Y118.888 E0.31668
G1 X182.108 Y118.888 E0.01677
G1 X174.976 Y111.757 E0.31668
G1 X174.442 Y111.757 E0.01677
G1 X181.573 Y118.888 E0.31668
G1 X181.039 Y118.888 E0.01677
G1 X173.908 Y111.757 E0.31668
G1 X173.374 Y111.757 E0.01677
G1 X180.505 Y118.888 E0.31668
G1 X179.971 Y118.888 E0.01677
G1 X172.840 Y111.757 E0.31668
G1 X172.306 Y111.757 E0.01677
G1 X179.437 Y118.888 E0.31668
G1 X178.903 Y118.888 E0.01677
G1 X171.772 Y111.757 E0.31668
G1 X171.238 Y111.757 E0.01677
G1 X178.369 Y118.888 E0.31668
G1 X177.835 Y118.888 E0.01677
G1 X170.704 Y111.757 E0.31668
G1 X170.170 Y111.757 E0.01677
G1 X177.301 Y118.888 E0.31668
G1 X176.767 Y118.888 E0.01677
G1 X169.636 Y111.757 E0.31668
G1 X169.102 Y111.757 E0.01677
G1 X176.233 Y118.888 E0.31668
G1 X175.699 Y118.888 E0.01677
G1 X168.568 Y111.757 E0.31668
G1 X168.033 Y111.757 E0.01677
G1 X175.165 Y118.888 E0.31668
G1 X174.631 Y118.888 E0.01677
G1 X167.499 Y111.757 E0.31668
G1 X166.965 Y111.757 E0.01677
G1 X174.097 Y118.888 E0.31668
G1 X173.563 Y118.888 E0.01677
G1 X166.431 Y111.757 E0.31668
G1 X165.897 Y111.757 E0.01677
G1 X173.028 Y118.888 E0.31668
M73 P1 R288
G1 X172.494 Y118.888 E0.01677
G1 X165.363 Y111.757 E0.31668
M73 Q1 S291
G1 X164.829 Y111.757 E0.01677
G1 X171.960 Y118.888 E0.31668
G1 X171.426 Y118.888 E0.01677
G1 X164.295 Y111.757 E0.31668
G1 X163.761 Y111.757 E0.01677
G1 X170.892 Y118.888 E0.31668
G1 X170.358 Y118.888 E0.01677
G1 X163.227 Y111.757 E0.31668
G1 X162.693 Y111.757 E0.01677
G1 X169.824 Y118.888 E0.31668
G1 X169.290 Y118.888 E0.01677
G1 X162.159 Y111.757 E0.31668
G1 X161.625 Y111.757 E0.01677
G1 X168.756 Y118.888 E0.31668
G1 X168.222 Y118.888 E0.01677
G1 X161.091 Y111.757 E0.31668
G1 X160.557 Y111.757 E0.01677
G1 X167.688 Y118.888 E0.31668
G1 X167.154 Y118.888 E0.01677
G1 X160.023 Y111.757 E0.31668
G1 X159.489 Y111.757 E0.01677
G1 X166.620 Y118.888 E0.31668
G1 X166.086 Y118.888 E0.01677
G1 X158.954 Y111.757 E0.31668
G1 X158.420 Y111.757 E0.01677
G1 X165.552 Y118.888 E0.31668
G1 X165.018 Y118.888 E0.01677
G1 X157.886 Y111.757 E0.31668
G1 X157.352 Y111.757 E0.01677
G1 X164.484 Y118.888 E0.31668
G1 X163.949 Y118.888 E0.01677
G1 X156.818 Y111.757 E0.31668
G1 X156.284 Y111.757 E0.01677
G1 X163.415 Y118.888 E0.31668
G1 X162.881 Y118.888 E0.01677
G1 X155.750 Y111.757 E0.31668
G1 X155.216 Y111.757 E0.01677
G1 X162.347 Y118.888 E0.31668
G1 X161.813 Y118.888 E0.01677
G1 X154.682 Y111.757 E0.31668
G1 X154.148 Y111.757 E0.01677
G1 X161.279 Y118.888 E0.31668
G1 X160.745 Y118.888 E0.01677
G1 X153.614 Y111.757 E0.31668
G1 X153.080 Y111.757 E0.01677
G1 X160.211 Y118.888 E0.31668
G1 X159.677 Y118.888 E0.01677
G1 X152.546 Y111.757 E0.31668
G1 X152.012 Y111.757 E0.01677
G1 X159.143 Y118.888 E0.31668
G1 X158.609 Y118.888 E0.01677
G1 X151.478 Y111.757 E0.31668
G1 X150.944 Y111.757 E0.01677
G1 X158.075 Y118.888 E0.31668
G1 X157.541 Y118.888 E0.01677
G1 X150.409 Y111.757 E0.31668
G1 X149.875 Y111.757 E0.01677
G1 X157.007 Y118.888 E0.31668
G1 X156.473 Y118.888 E0.01677
G1 X149.341 Y111.757 E0.31668
G1 X148.807 Y111.757 E0.01677
G1 X155.939 Y118.888 E0.31668
G1 X155.404 Y118.888 E0.01677
G1 X148.273 Y111.757 E0.31668
G1 X147.739 Y111.757 E0.01677
G1 X154.870 Y118.888 E0.31668
G1 X154.336 Y118.888 E0.01677
M73 P1 R287
G1 X147.205 Y111.757 E0.31668
G1 X146.671 Y111.757 E0.01677
G1 X153.802 Y118.888 E0.31668
G1 X153.268 Y118.888 E0.01677
G1 X146.137 Y111.757 E0.31668
G1 X145.603 Y111.757 E0.01677
G1 X152.734 Y118.888 E0.31668
G1 X152.200 Y118.888 E0.01677
G1 X145.069 Y111.757 E0.31668
G1 X144.535 Y111.757 E0.01677
G1 X151.666 Y118.888 E0.31668
G1 X151.132 Y118.888 E0.01677
G1 X144.001 Y111.757 E0.31668
G1 X143.467 Y111.757 E0.01677
G1 X150.598 Y118.888 E0.31668
G1 X150.064 Y118.888 E0.01677
G1 X142.933 Y111.757 E0.31668
G1 X142.399 Y111.757 E0.01677
G1 X149.530 Y118.888 E0.31668
G1 X148.996 Y118.888 E0.01677
G1 X141.865 Y111.757 E0.31668
G1 X141.330 Y111.757 E0.01677
G1 X148.462 Y118.888 E0.31668
G1 X147.928 Y118.888 E0.01677
G1 X140.796 Y111.757 E0.31668
G1 X140.262 Y111.757 E0.01677
G1 X147.394 Y118.888 E0.31668
G1 X146.860 Y118.888 E0.01677
G1 X139.728 Y111.757 E0.31668
G1 X139.194 Y111.757 E0.01677
G1 X146.325 Y118.888 E0.31668
M73 Q1 S290
G1 X145.791 Y118.888 E0.01677
G1 X138.660 Y111.757 E0.31668
G1 X138.126 Y111.757 E0.01677
G1 X145.257 Y118.888 E0.31668
G1 X144.723 Y118.888 E0.01677
G1 X137.592 Y111.757 E0.31668
G1 X137.058 Y111.757 E0.01677
G1 X144.189 Y118.888 E0.31668
G1 X143.655 Y118.888 E0.01677
G1 X136.524 Y111.757 E0.31668
G1 X135.990 Y111.757 E0.01677
G1 X143.121 Y118.888 E0.31668
G1 X142.587 Y118.888 E0.01677
G1 X135.456 Y111.757 E0.31668
G1 X134.922 Y111.757 E0.01677
G1 X142.053 Y118.888 E0.31668
G1 X141.519 Y118.888 E0.01677
G1 X134.388 Y111.757 E0.31668
G1 X133.854 Y111.757 E0.01677
G1 X140.985 Y118.888 E0.31668
G1 X140.451 Y118.888 E0.01677
G1 X133.320 Y111.757 E0.31668
G1 X132.785 Y111.757 E0.01677
G1 X139.917 Y118.888 E0.31668
G1 X139.383 Y118.888 E0.01677
G1 X132.251 Y111.757 E0.31668
G1 X131.717 Y111.757 E0.01677
G1 X138.849 Y118.888 E0.31668
G1 X138.315 Y118.888 E0.01677
G1 X131.183 Y111.757 E0.31668
G1 X130.649 Y111.757 E0.01677
G1 X137.780 Y118.888 E0.31668
G1 X137.246 Y118.888 E0.01677
G1 X130.115 Y111.757 E0.31668
G1 X129.581 Y111.757 E0.01677
G1 X136.712 Y118.888 E0.31668
G1 X136.178 Y118.888 E0.01677
G1 X129.047 Y111.757 E0.31668
G1 X128.513 Y111.757 E0.01677
G1 X135.644 Y118.888 E0.31668
G1 X135.110 Y118.888 E0.01677
G1 X127.979 Y111.757 E0.31668
G1 X127.445 Y111.757 E0.01677
G1 X134.576 Y118.888 E0.31668
G1 X134.042 Y118.888 E0.01677
G1 X126.911 Y111.757 E0.31668
G1 X126.377 Y111.757 E0.01677
G1 X133.508 Y118.888 E0.31668
G1 X132.974 Y118.888 E0.01677
G1 X125.843 Y111.757 E0.31668
G1 X125.309 Y111.757 E0.01677
G1 X132.440 Y118.888 E0.31668
G1 X131.906 Y118.888 E0.01677
G1 X124.775 Y111.757 E0.31668
G1 X124.241 Y111.757 E0.01677
G1 X131.372 Y118.888 E0.31668
G1 X130.838 Y118.888 E0.01677
G1 X123.706 Y111.757 E0.31668
G1 X123.172 Y111.757 E0.01677
G1 X130.304 Y118.888 E0.31668
G1 X129.770 Y118.888 E0.01677
G1 X122.638 Y111.757 E0.31668
G1 X122.104 Y111.757 E0.01677
G1 X129.236 Y118.888 E0.31668
G1 X128.701 Y118.888 E0.01677
G1 X121.570 Y111.757 E0.31668
G1 X121.036 Y111.757 E0.01677
G1 X128.167 Y118.888 E0.31668
G1 X127.633 Y118.888 E0.01677
G1 X120.502 Y111.757 E0.31668
G1 X119.968 Y111.757 E0.01677
G1 X127.099 Y118.888 E0.31668
G1 X126.565 Y118.888 E0.01677
G1 X119.434 Y111.757 E0.31668
G1 X118.900 Y111.757 E0.01677
G1 X126.031 Y118.888 E0.31668
G1 X125.497 Y118.888 E0.01677
G1 X118.366 Y111.757 E0.31668
G1 X117.832 Y111.757 E0.01677
G1 X124.963 Y118.888 E0.31668
G1 X124.429 Y118.888 E0.01677
G1 X117.298 Y111.757 E0.31668
G1 X116.764 Y111.757 E0.01677
G1 X123.895 Y118.888 E0.31668
G1 X123.361 Y118.888 E0.01677
G1 X116.230 Y111.757 E0.31668
G1 X115.696 Y111.757 E0.01677
G1 X122.827 Y118.888 E0.31668
G1 X122.293 Y118.888 E0.01677
G1 X115.161 Y111.757 E0.31668
G1 X114.627 Y111.757 E0.01677
G1 X121.759 Y118.888 E0.31668
G1 X121.225 Y118.888 E0.01677
G1 X114.093 Y111.757 E0.31668
G1 X113.559 Y111.757 E0.01677
G1 X120.691 Y118.888 E0.31668
G1 X120.156 Y118.888 E0.01677
G1 X113.025 Y111.757 E0.31668
G1 X112.491 Y111.757 E0.01677
G1 X119.622 Y118.888 E0.31668
G1 X119.088 Y118.888 E0.01677
G1 X111.957 Y111.757 E0.31668
G1 X111.423 Y111.757 E0.01677
G1 X118.554 Y118.888 E0.31668
G1 X118.020 Y118.888 E0.01677
G1 X110.889 Y111.757 E0.31668
G1 X110.355 Y111.757 E0.01677
G1 X117.486 Y118.888 E0.31668
G1 X116.952 Y118.888 E0.01677
G1 X109.821 Y111.757 E0.31668
G1 X109.287 Y111.757 E0.01677
G1 X116.418 Y118.888 E0.31668
G1 X115.884 Y118.888 E0.01677
G1 X108.753 Y111.757 E0.31668
G1 X108.219 Y111.757 E0.01677
G1 X115.350 Y118.888 E0.31668
G1 X114.816 Y118.888 E0.01677
G1 X107.685 Y111.757 E0.31668
G1 X107.151 Y111.757 E0.01677
G1 X114.282 Y118.888 E0.31668
G1 X113.748 Y118.888 E0.01677
G1 X106.617 Y111.757 E0.31668
G1 X106.082 Y111.757 E0.01677
G1 X113.214 Y118.888 E0.31668
G1 X112.680 Y118.888 E0.01677
G1 X105.548 Y111.757 E0.31668
G1 X105.014 Y111.757 E0.01677
G1 X112.146 Y118.888 E0.31668
G1 X111.612 Y118.888 E0.01677
G1 X104.480 Y111.757 E0.31668
G1 X103.946 Y111.757 E0.01677
G1 X111.077 Y118.888 E0.31668
G1 X110.543 Y118.888 E0.01677
G1 X103.412 Y111.757 E0.31668
G1 X102.878 Y111.757 E0.01677
G1 X110.009 Y118.888 E0.31668
G1 X109.475 Y118.888 E0.01677
G1 X102.344 Y111.757 E0.31668
G1 X101.810 Y111.757 E0.01677
G1 X108.941 Y118.888 E0.31668
G1 X108.407 Y118.888 E0.01677
G1 X101.276 Y111.757 E0.31668
G1 X100.742 Y111.757 E0.01677
G1 X107.873 Y118.888 E0.31668
G1 X107.339 Y118.888 E0.01677
G1 X100.208 Y111.757 E0.31668
G1 X99.674 Y111.757 E0.01677
G1 X106.805 Y118.888 E0.31668
G1 X106.271 Y118.888 E0.01677
G1 X99.140 Y111.757 E0.31668
G1 X98.606 Y111.757 E0.01677
G1 X105.737 Y118.888 E0.31668
G1 X105.203 Y118.888 E0.01677
G1 X98.072 Y111.757 E0.31668
G1 X97.537 Y111.757 E0.01677
G1 X104.669 Y118.888 E0.31668
G1 X104.135 Y118.888 E0.01677
G1 X97.003 Y111.757 E0.31668
G1 X96.469 Y111.757 E0.01677
G1 X103.601 Y118.888 E0.31668
G1 X103.067 Y118.888 E0.01677
G1 X95.935 Y111.757 E0.31668
G1 X95.401 Y111.757 E0.01677
G1 X102.532 Y118.888 E0.31668
G1 X101.998 Y118.888 E0.01677
G1 X94.867 Y111.757 E0.31668
G1 X94.333 Y111.757 E0.01677
