; generated by PrusaSlicer 2.3.0+win64 on 2021-02-04 at 14:23:45 UTC

; 

; external perimeters extrusion width = 0.60mm
; perimeters extrusion width = 0.50mm
; infill extrusion width = 0.50mm
; solid infill extrusion width = 0.50mm
; top infill extrusion width = 0.45mm
; support material extrusion width = 0.38mm
; first layer extrusion width = 0.42mm

M73 P0 R233
M73 Q0 S234
M201 X1000 Y1000 Z200 E5000 ; sets maximum accelerations, mm/sec^2
M203 X200 Y200 Z12 E120 ; sets maximum feedrates, mm/sec
M204 P1250 R1250 T1250 ; sets acceleration (P, T) and retract acceleration (R), mm/sec^2
M205 X8.00 Y8.00 Z0.40 E4.50 ; sets the jerk limits, mm/sec
M205 S0 T0 ; sets the minimum extruding and travel feed rate, mm/sec
M107
;TYPE:Custom
M862.3 P "MK3S" ; printer model check
M862.1 P0.4 ; nozzle diameter check
M115 U3.9.2 ; tell printer latest fw version
G90 ; use absolute coordinates
M83 ; extruder relative mode
M104 S235 ; set extruder temp
M140 S70 ; set bed temp
M190 S70 ; wait for bed temp
M109 S235 ; wait for extruder temp
G28 W ; home all without mesh bed level
G80 ; mesh bed leveling
G1 Y-3.0 F1000.0 ; go outside print area
G92 E0.0
G1 X60.0 E9.0 F1000.0 ; intro line
G1 X100.0 E12.5 F1000.0 ; intro line
G92 E0.0
M221 S95

; Don't change E values below. Excessive value can damage the printer.

M907 E538 ; set extruder motor current
G21 ; set units to millimeters
G90 ; use absolute coordinates
M83 ; use relative distances for extrusion
M900 K0.05 ; Filament gcode LA 1.5
M900 K30 ; Filament gcode LA 1.0
;LAYER_CHANGE
;Z:0.2
;HEIGHT:0.2
;BEFORE_LAYER_CHANGE
G92 E0.0
;0.2


G1 E-0.80000 F2100.000
G1 Z0.400 F10800.000
;AFTER_LAYER_CHANGE
;0.2
G1 X28.610 Y52.114
G1 Z0.200
G1 E0.80000 F2100.000
M204 S1000
;TYPE:Skirt
;WIDTH:0.42
G1 F1200.000
G1 X29.157 Y51.898 E0.01846
G1 X29.745 Y51.823 E0.01858
G1 X220.254 Y51.823 E5.97327
G1 X221.156 Y52.002 E0.02884
G1 X221.925 Y52.513 E0.02896
G1 X222.440 Y53.276 E0.02884
G1 X222.627 Y54.176 E0.02884
G1 X222.627 Y155.827 E3.18718
G1 X222.537 Y156.447 E0.01965
G1 X222.289 Y157.022 E0.01965
G1 X221.899 Y157.512 E0.01965
G1 X221.390 Y157.886 E0.01977
G1 X220.843 Y158.102 E0.01846
G1 X220.255 Y158.177 E0.01858
G1 X29.739 Y158.177 E5.97351
M73 Q0 S233
G1 X29.110 Y158.089 E0.01989
G1 X28.531 Y157.841 E0.01977
G1 X28.038 Y157.449 E0.01977
G1 X27.664 Y156.940 E0.01977
G1 X27.448 Y156.393 E0.01846
G1 X27.373 Y155.805 E0.01858
G1 X27.373 Y54.177 E3.18647
G1 X27.462 Y53.557 E0.01965
M73 P0 R232
G1 X27.711 Y52.978 E0.01977
G1 X28.101 Y52.488 E0.01965
G1 X28.561 Y52.150 E0.01789
;WIPE_START
G1 F8640.000
G1 X29.157 Y51.898 E-0.14941
G1 X29.745 Y51.823 E-0.13685
G1 X31.797 Y51.823 E-0.47374
;WIPE_END
G1 E-0.04000 F2100.000
G1 Z0.600 F10800.000
G1 X27.280 Y50.135
G1 Z0.200
G1 E0.80000 F2100.000
G1 F1200.000
G1 X29.203 Y49.487 E0.06363
G1 X220.736 Y49.490 E6.00538
G1 X221.685 Y49.674 E0.03029
G1 X222.593 Y50.065 E0.03101
G1 X223.812 Y51.088 E0.04990
G1 X224.603 Y52.306 E0.04551
G1 X224.963 Y53.689 E0.04481
G1 X224.963 Y156.310 E3.21761
G1 X224.665 Y157.533 E0.03947
G1 X224.256 Y158.349 E0.02862
G1 X223.358 Y159.361 E0.04242
G1 X222.720 Y159.865 E0.02550
G1 X220.797 Y160.513 E0.06363
G1 X29.240 Y160.513 E6.00612
G1 X28.017 Y160.215 E0.03947
G1 X27.201 Y159.806 E0.02862
G1 X26.189 Y158.908 E0.04242
G1 X25.685 Y158.270 E0.02550
G1 X25.037 Y156.347 E0.06363
G1 X25.037 Y53.690 E3.21872
G1 X25.335 Y52.467 E0.03947
G1 X25.744 Y51.651 E0.02862
G1 X26.642 Y50.639 E0.04242
G1 X27.233 Y50.173 E0.02362
G1 X27.466 Y50.469 F10800.000
G1 F1200.000
G1 X29.234 Y49.864 E0.05860
G1 X220.717 Y49.867 E6.00383
G1 X221.591 Y50.040 E0.02792
G1 X222.416 Y50.399 E0.02823
G1 X223.547 Y51.358 E0.04647
G1 X224.246 Y52.432 E0.04018
G1 X224.586 Y53.713 E0.04157
G1 X224.586 Y156.286 E3.21610
G1 X224.305 Y157.420 E0.03664
G1 X223.932 Y158.156 E0.02585
G1 X223.089 Y159.096 E0.03960
G1 X222.513 Y159.548 E0.02295
G1 X220.766 Y160.136 E0.05778
G1 X29.264 Y160.136 E6.00442
M73 Q0 S232
G1 X28.130 Y159.855 E0.03664
G1 X27.394 Y159.482 E0.02585
G1 X26.454 Y158.639 E0.03960
G1 X26.002 Y158.063 E0.02295
G1 X25.414 Y156.316 E0.05778
G1 X25.414 Y53.714 E3.21703
M73 P0 R231
G1 X25.695 Y52.580 E0.03664
G1 X26.068 Y51.844 E0.02585
G1 X26.911 Y50.904 E0.03960
G1 X27.418 Y50.506 E0.02021
G1 X27.650 Y50.803 F10800.000
G1 F1200.000
G1 X27.693 Y50.769 E0.00173
G1 X29.264 Y50.241 E0.05197
G1 X220.698 Y50.244 E6.00227
G1 X221.496 Y50.405 E0.02550
G1 X222.238 Y50.733 E0.02545
G1 X223.280 Y51.626 E0.04302
G1 X223.913 Y52.610 E0.03669
G1 X224.209 Y53.738 E0.03655
G1 X224.209 Y156.262 E3.21459
G1 X223.945 Y157.306 E0.03376
G1 X223.608 Y157.960 E0.02308
G1 X222.821 Y158.830 E0.03679
G1 X222.307 Y159.231 E0.02043
G1 X220.736 Y159.759 E0.05197
G1 X29.288 Y159.759 E6.00271
G1 X28.244 Y159.495 E0.03376
G1 X27.590 Y159.158 E0.02308
G1 X26.720 Y158.371 E0.03679
G1 X26.319 Y157.857 E0.02043
G1 X25.791 Y156.286 E0.05197
G1 X25.791 Y53.738 E3.21532
G1 X26.055 Y52.694 E0.03376
G1 X26.392 Y52.040 E0.02308
G1 X27.179 Y51.170 E0.03679
G1 X27.603 Y50.840 E0.01682
G1 X27.899 Y51.087 F10800.000
G1 F1200.000
G1 X29.295 Y50.618 E0.04619
G1 X220.679 Y50.621 E6.00070
G1 X221.398 Y50.770 E0.02304
G1 X222.058 Y51.065 E0.02266
G1 X223.012 Y51.892 E0.03960
G1 X223.556 Y52.737 E0.03149
G1 X223.832 Y53.763 E0.03331
G1 X223.832 Y156.238 E3.21303
M73 P1 R231
M73 Q1 S232
G1 X223.585 Y157.189 E0.03082
G1 X223.286 Y157.763 E0.02030
G1 X222.554 Y158.563 E0.03399
G1 X222.101 Y158.913 E0.01793
G1 X220.705 Y159.382 E0.04619
G1 X29.312 Y159.382 E6.00099
M73 Q1 S231
G1 X28.361 Y159.135 E0.03082
G1 X27.787 Y158.836 E0.02030
G1 X26.987 Y158.104 E0.03399
G1 X26.637 Y157.651 E0.01793
G1 X26.168 Y156.255 E0.04619
G1 X26.168 Y53.762 E3.21359
M73 P1 R230
G1 X26.415 Y52.811 E0.03082
G1 X26.714 Y52.237 E0.02030
G1 X27.446 Y51.437 E0.03399
G1 X27.851 Y51.124 E0.01605
G1 X28.080 Y51.423 F10800.000
G1 F1200.000
G1 X29.326 Y50.995 E0.04130
G1 X220.660 Y50.998 E5.99914
G1 X221.263 Y51.123 E0.01933
G1 X221.878 Y51.397 E0.02110
G1 X222.742 Y52.157 E0.03609
G1 X223.222 Y52.914 E0.02809
G1 X223.455 Y53.787 E0.02835
G1 X223.455 Y156.213 E3.21148
G1 X223.227 Y157.071 E0.02783
G1 X222.965 Y157.564 E0.01752
G1 X222.289 Y158.295 E0.03121
G1 X221.897 Y158.594 E0.01546
G1 X220.674 Y159.005 E0.04045
G1 X29.337 Y159.005 E5.99924
G1 X28.479 Y158.777 E0.02783
G1 X27.986 Y158.515 E0.01752
G1 X27.255 Y157.839 E0.03121
G1 X26.956 Y157.447 E0.01546
G1 X26.545 Y156.224 E0.04045
G1 X26.545 Y53.787 E3.21184
G1 X26.773 Y52.929 E0.02783
G1 X27.035 Y52.436 E0.01752
G1 X27.711 Y51.705 E0.03121
G1 X28.032 Y51.459 E0.01269
;WIPE_START
G1 F8640.000
G1 X29.326 Y50.995 E-0.31731
G1 X31.243 Y50.995 E-0.44269
;WIPE_END
G1 E-0.04000 F2100.000
G1 Z0.600 F10800.000
G1 X29.356 Y51.372
G1 Z0.200
G1 E0.80000 F2100.000
G1 F1200.000
G1 X220.639 Y51.376 E5.99754
G1 X221.164 Y51.487 E0.01682
G1 X221.695 Y51.728 E0.01829
G1 X222.472 Y52.421 E0.03263
G1 X222.866 Y53.041 E0.02306
G1 X223.078 Y53.813 E0.02510
G1 X223.078 Y156.187 E3.20985
G1 X222.870 Y156.949 E0.02477
G1 X222.646 Y157.362 E0.01474
G1 X222.025 Y158.025 E0.02845
G1 X221.695 Y158.275 E0.01301
G1 X220.644 Y158.628 E0.03476
G1 X29.363 Y158.628 E5.99747
M73 Q1 S230
G1 X28.601 Y158.420 E0.02477
G1 X28.188 Y158.196 E0.01474
G1 X27.525 Y157.575 E0.02845
G1 X27.275 Y157.245 E0.01301
G1 X26.922 Y156.194 E0.03476
G1 X26.922 Y53.813 E3.21007
M73 P1 R229
G1 X27.130 Y53.051 E0.02477
G1 X27.354 Y52.638 E0.01474
G1 X27.975 Y51.975 E0.02845
G1 X28.305 Y51.725 E0.01301
G1 X29.299 Y51.391 E0.03288
G1 X29.418 Y52.126 F10800.000
G1 F1200.000
G1 X220.596 Y52.130 E5.99425
G1 X220.955 Y52.213 E0.01157
G1 X221.321 Y52.385 E0.01268
G1 X221.926 Y52.943 E0.02580
G1 X222.158 Y53.305 E0.01347
G1 X222.324 Y53.868 E0.01841
G1 X222.324 Y156.132 E3.20641
G1 X222.159 Y156.694 E0.01838
G1 X222.013 Y156.949 E0.00919
G1 X221.504 Y157.479 E0.02305
G1 X221.294 Y157.634 E0.00819
G1 X220.582 Y157.874 E0.02355
G1 X29.418 Y157.874 E5.99382
G1 X28.856 Y157.709 E0.01838
G1 X28.601 Y157.563 E0.00919
G1 X28.071 Y157.054 E0.02305
G1 X27.916 Y156.844 E0.00819
G1 X27.676 Y156.132 E0.02355
G1 X27.676 Y53.868 E3.20642
G1 X27.841 Y53.306 E0.01838
G1 X27.987 Y53.051 E0.00919
G1 X28.496 Y52.521 E0.02305
G1 X28.706 Y52.366 E0.00819
G1 X29.361 Y52.145 E0.02166
G1 X28.904 Y52.688 F10800.000
G1 F1200.000
G1 X29.449 Y52.503 E0.01806
G1 X220.574 Y52.507 E5.99259
G1 X220.812 Y52.562 E0.00767
G1 X221.132 Y52.713 E0.01109
G1 X221.651 Y53.201 E0.02233
G1 X221.806 Y53.442 E0.00898
G1 X221.947 Y53.898 E0.01495
G1 X221.947 Y156.102 E3.20456
G1 X221.806 Y156.559 E0.01500
G1 X221.701 Y156.736 E0.00643
G1 X221.246 Y157.203 E0.02044
G1 X221.096 Y157.312 E0.00580
G1 X220.551 Y157.497 E0.01806
G1 X29.448 Y157.497 E5.99191
M73 Q1 S229
G1 X28.991 Y157.356 E0.01500
G1 X28.814 Y157.251 E0.00643
G1 X28.347 Y156.796 E0.02044
G1 X28.238 Y156.646 E0.00580
G1 X28.053 Y156.101 E0.01806
G1 X28.053 Y53.898 E3.20452
M73 P2 R228
G1 X28.194 Y53.441 E0.01500
G1 X28.299 Y53.264 E0.00643
G1 X28.754 Y52.797 E0.02044
G1 X28.855 Y52.724 E0.00392
G1 X29.098 Y53.012 F10800.000
G1 F1200.000
G1 X29.481 Y52.880 E0.01270
G1 X220.552 Y52.884 E5.99090
M73 Q2 S229
G1 X220.669 Y52.911 E0.00377
G1 X220.942 Y53.040 E0.00947
G1 X221.373 Y53.457 E0.01880
G1 X221.457 Y53.585 E0.00479
G1 X221.570 Y53.929 E0.01136
G1 X221.570 Y156.071 E3.20257
G1 X221.456 Y156.417 E0.01144
G1 X221.394 Y156.518 E0.00371
G1 X220.991 Y156.925 E0.01795
G1 X220.902 Y156.988 E0.00343
G1 X220.519 Y157.120 E0.01270
G1 X29.479 Y157.120 E5.98992
G1 X29.133 Y157.006 E0.01144
G1 X29.032 Y156.944 E0.00371
G1 X28.625 Y156.541 E0.01795
G1 X28.562 Y156.452 E0.00343
G1 X28.430 Y156.069 E0.01270
G1 X28.430 Y53.929 E3.20253
G1 X28.544 Y53.583 E0.01144
G1 X28.606 Y53.482 E0.00371
G1 X29.049 Y53.047 E0.01947
G1 X29.287 Y53.339 F10800.000
G1 F1200.000
G1 X29.514 Y53.257 E0.00757
G1 X220.500 Y53.257 E5.98821
G1 X220.750 Y53.367 E0.00856
G1 X221.093 Y53.710 E0.01522
G1 X221.193 Y53.964 E0.00856
G1 X221.193 Y156.036 E3.20037
G1 X221.111 Y156.263 E0.00757
G1 X220.740 Y156.643 E0.01666
G1 X220.486 Y156.743 E0.00856
G1 X29.514 Y156.743 E5.98777
M73 Q2 S228
G1 X29.287 Y156.661 E0.00757
G1 X28.907 Y156.290 E0.01666
G1 X28.807 Y156.036 E0.00856
G1 X28.807 Y53.964 E3.20037
M73 P2 R227
G1 X28.907 Y53.710 E0.00856
G1 X29.241 Y53.376 E0.01480
G1 X29.487 Y53.663 F10800.000
G1 F1200.000
G1 X29.556 Y53.634 E0.00235
G1 X220.444 Y53.634 E5.98514
G1 X220.513 Y53.663 E0.00235
G1 X220.787 Y53.937 E0.01215
G1 X220.816 Y54.006 E0.00235
G1 X220.816 Y155.994 E3.19774
G1 X220.787 Y156.063 E0.00235
G1 X220.513 Y156.337 E0.01215
G1 X220.444 Y156.366 E0.00235
G1 X29.556 Y156.366 E5.98514
G1 X29.487 Y156.337 E0.00235
G1 X29.213 Y156.063 E0.01215
G1 X29.184 Y155.994 E0.00235
G1 X29.184 Y54.006 E3.19774
G1 X29.213 Y53.937 E0.00235
G1 X29.445 Y53.706 E0.01027
G1 X29.672 Y54.011 F10800.000
G1 F1200.000
G1 X220.328 Y54.011 E5.97789
G1 X220.439 Y54.122 E0.00490
G1 X220.439 Y155.878 E3.19049
G1 X220.328 Y155.989 E0.00490
G1 X29.672 Y155.989 E5.97789
M73 Q2 S227
G1 X29.561 Y155.878 E0.00490
G1 X29.561 Y54.122 E3.19049
M73 P2 R226
G1 X29.629 Y54.054 E0.00302
; printing object plant_light_top_20210109.STL id:0 copy 0
;WIPE_START
G1 F8640.000
G1 X32.921 Y54.053 E-0.76000
;WIPE_END
G1 E-0.04000 F2100.000
G1 Z0.600 F10800.000
G1 X49.584 Y72.916
G1 Z0.200
G1 E0.80000 F2100.000
;TYPE:Support material
G1 F1200.000
G1 X49.584 Y70.113 E0.08788
G1 X50.338 Y68.807 E0.04729
G1 X50.338 Y73.883 E0.15915
G1 X50.424 Y74.031 E0.00538
G1 X51.092 Y74.031 E0.02096
G1 X51.092 Y68.659 E0.16846
G1 X51.847 Y68.659 E0.02365
G1 X51.847 Y74.031 E0.16846
G1 X52.601 Y74.031 E0.02365
G1 X52.601 Y68.659 E0.16846
G1 X53.355 Y68.659 E0.02365
G1 X53.355 Y74.201 E0.17378
;WIPE_START
G1 F8640.000
G1 X53.355 Y70.910 E-0.76000
;WIPE_END
G1 E-0.04000 F2100.000
G1 Z0.600 F10800.000
G1 X49.584 Y80.536
G1 Z0.200
G1 E0.80000 F2100.000
G1 F1200.000
G1 X49.584 Y77.733 E0.08788
G1 X50.338 Y76.427 E0.04729
G1 X50.338 Y81.503 E0.15915
G1 X50.424 Y81.651 E0.00538
G1 X51.092 Y81.651 E0.02096
G1 X51.092 Y76.279 E0.16846
G1 X51.847 Y76.279 E0.02365
G1 X51.847 Y81.651 E0.16846
G1 X52.601 Y81.651 E0.02365
G1 X52.601 Y76.279 E0.16846
G1 X53.355 Y76.279 E0.02365
G1 X53.355 Y81.821 E0.17378
;WIPE_START
G1 F8640.000
G1 X53.355 Y78.530 E-0.76000
;WIPE_END
G1 E-0.04000 F2100.000
G1 Z0.600 F10800.000
G1 X49.584 Y88.156
G1 Z0.200
G1 E0.80000 F2100.000
G1 F1200.000
G1 X49.584 Y85.353 E0.08788
G1 X50.338 Y84.047 E0.04729
G1 X50.338 Y89.123 E0.15915
G1 X50.424 Y89.271 E0.00538
G1 X51.092 Y89.271 E0.02096
G1 X51.092 Y83.899 E0.16846
G1 X51.847 Y83.899 E0.02365
G1 X51.847 Y89.271 E0.16846
G1 X52.601 Y89.271 E0.02365
G1 X52.601 Y83.899 E0.16846
G1 X53.355 Y83.899 E0.02365
G1 X53.355 Y89.441 E0.17378
;WIPE_START
G1 F8640.000
G1 X53.355 Y86.150 E-0.76000
;WIPE_END
G1 E-0.04000 F2100.000
G1 Z0.600 F10800.000
G1 X49.584 Y95.776
G1 Z0.200
G1 E0.80000 F2100.000
G1 F1200.000
G1 X49.584 Y92.973 E0.08788
G1 X50.338 Y91.667 E0.04729
G1 X50.338 Y96.743 E0.15915
G1 X50.424 Y96.891 E0.00538
G1 X51.092 Y96.891 E0.02096
G1 X51.092 Y91.519 E0.16846
G1 X51.847 Y91.519 E0.02365
G1 X51.847 Y96.891 E0.16846
G1 X52.601 Y96.891 E0.02365
G1 X52.601 Y91.519 E0.16846
G1 X53.355 Y91.519 E0.02365
G1 X53.355 Y97.061 E0.17378
;WIPE_START
G1 F8640.000
G1 X53.355 Y93.770 E-0.76000
;WIPE_END
G1 E-0.04000 F2100.000
G1 Z0.600 F10800.000
G1 X49.584 Y103.396
G1 Z0.200
G1 E0.80000 F2100.000
G1 F1200.000
G1 X49.584 Y100.593 E0.08788
G1 X50.338 Y99.287 E0.04729
G1 X50.338 Y104.363 E0.15915
G1 X50.424 Y104.511 E0.00538
G1 X51.092 Y104.511 E0.02096
G1 X51.092 Y99.139 E0.16846
G1 X51.847 Y99.139 E0.02365
G1 X51.847 Y104.511 E0.16846
G1 X52.601 Y104.511 E0.02365
G1 X52.601 Y99.139 E0.16846
G1 X53.355 Y99.139 E0.02365
G1 X53.355 Y104.681 E0.17378
;WIPE_START
G1 F8640.000
G1 X53.355 Y101.390 E-0.76000
;WIPE_END
G1 E-0.04000 F2100.000
G1 Z0.600 F10800.000
G1 X49.584 Y111.016
G1 Z0.200
G1 E0.80000 F2100.000
G1 F1200.000
G1 X49.584 Y108.213 E0.08788
G1 X50.338 Y106.907 E0.04729
G1 X50.338 Y111.983 E0.15915
G1 X50.424 Y112.131 E0.00538
G1 X51.092 Y112.131 E0.02096
G1 X51.092 Y106.759 E0.16846
G1 X51.847 Y106.759 E0.02365
G1 X51.847 Y112.131 E0.16846
G1 X52.601 Y112.131 E0.02365
G1 X52.601 Y106.759 E0.16846
G1 X53.355 Y106.759 E0.02365
G1 X53.355 Y112.301 E0.17378
;WIPE_START
G1 F8640.000
G1 X53.355 Y109.010 E-0.76000
;WIPE_END
G1 E-0.04000 F2100.000
G1 Z0.600 F10800.000
G1 X49.584 Y118.636
G1 Z0.200
G1 E0.80000 F2100.000
G1 F1200.000
G1 X49.584 Y115.833 E0.08788
G1 X50.338 Y114.527 E0.04729
G1 X50.338 Y119.603 E0.15915
G1 X50.424 Y119.751 E0.00538
G1 X51.092 Y119.751 E0.02096
G1 X51.092 Y114.379 E0.16846
G1 X51.847 Y114.379 E0.02365
G1 X51.847 Y119.751 E0.16846
G1 X52.601 Y119.751 E0.02365
G1 X52.601 Y114.379 E0.16846
G1 X53.355 Y114.379 E0.02365
G1 X53.355 Y119.921 E0.17378
;WIPE_START
G1 F8640.000
G1 X53.355 Y116.630 E-0.76000
;WIPE_END
G1 E-0.04000 F2100.000
G1 Z0.600 F10800.000
G1 X49.584 Y126.256
G1 Z0.200
G1 E0.80000 F2100.000
G1 F1200.000
G1 X49.584 Y123.453 E0.08788
G1 X50.338 Y122.147 E0.04729
G1 X50.338 Y127.223 E0.15915
G1 X50.424 Y127.371 E0.00538
G1 X51.092 Y127.371 E0.02096
G1 X51.092 Y121.999 E0.16846
G1 X51.847 Y121.999 E0.02365
G1 X51.847 Y127.371 E0.16846
G1 X52.601 Y127.371 E0.02365
G1 X52.601 Y121.999 E0.16846
G1 X53.355 Y121.999 E0.02365
G1 X53.355 Y127.541 E0.17378
;WIPE_START
G1 F8640.000
G1 X53.355 Y124.250 E-0.76000
;WIPE_END
G1 E-0.04000 F2100.000
G1 Z0.600 F10800.000
G1 X49.584 Y133.876
G1 Z0.200
G1 E0.80000 F2100.000
G1 F1200.000
G1 X49.584 Y131.073 E0.08788
G1 X50.338 Y129.767 E0.04729
G1 X50.338 Y134.843 E0.15915
G1 X50.424 Y134.991 E0.00538
G1 X51.092 Y134.991 E0.02096
G1 X51.092 Y129.619 E0.16846
G1 X51.847 Y129.619 E0.02365
G1 X51.847 Y134.991 E0.16846
G1 X52.601 Y134.991 E0.02365
G1 X52.601 Y129.619 E0.16846
G1 X53.355 Y129.619 E0.02365
G1 X53.355 Y135.161 E0.17378
;WIPE_START
G1 F8640.000
G1 X53.355 Y131.870 E-0.76000
;WIPE_END
G1 E-0.04000 F2100.000
G1 Z0.600 F10800.000
G1 X54.863 Y140.635
G1 Z0.200
G1 E0.80000 F2100.000
G1 F1200.000
G1 X54.863 Y139.555 E0.03387
G1 X54.590 Y139.081 E0.01716
G1 X54.109 Y139.081 E0.01507
